!!!!SEGMENT: pl-wn--mus-iii-160-984_sowinski-wojciech--la-bercheuse-op-73.krn
!!!cenid: 18xx:3580
!!!COM: Sowiński, Wojciech
!!!COM-rismid: pe30008543
!!!CDT:
!!!CNT:
!!!OTL: La bercheuse op. 73
!!!PDT:
!!!AGN:
!!!SMS-siglum: PL-Wn
!!!SMS-shelfmark: Mus.III.160.984
!!!SMS-shelfwork: W
!!!SMS-variant:
!!!SMS-altvar:
!!!NIFC-rismid:
!!!URL-scan: https://polona.pl/item/la-bercheuse-op-73,MTA2MDA4OTY2/2/#info:metadata
!!!ONB-nifc:
!!!key: A
**kern	**fing	**kern	**fing	**dynam
*part1	*part1	*part1	*part1	*part1
*staff2	*staff2	*staff1	*staff1	*
*>[A,B,B1,B,B2,C,C1,C2,D]	*>[A,B,B1,B,B2,C,C1,C2,D]	*>[A,B,B1,B,B2,C,C1,C2,D]	*>[A,B,B1,B,B2,C,C1,C2,D]	*>[A,B,B1,B,B2,C,C1,C2,D]
*>A	*>A	*>A	*>A	*>A
*I"INTRODUCTION	*	*I"INTRODUCTION	*	*
*Ipiano	*	*Ipiano	*	*
*ICklav	*	*ICklav	*	*
*clefF4	*	*clefG2	*	*
*k[f#c#g#]	*	*k[f#c#g#]	*	*
*A:	*	*A:	*	*
=1	=1	=1	=1	=1
!	!	!LO:TX:b:t=les deux pedales	!	!
!	!	!LO:TX:t=P:problem:brak metrum	!	!LO:DY:rj
8.eL 8.d\	.	8.bL 8.g#/	.	p
16eJk 16d\	.	(16bJk 16g#/	.	.
4.e 4.d\	.	4ee 4g#\)	.	.
.	.	(32qqe/LLL	.	.
.	.	32qqg#/	.	.
.	.	32qqb/	.	.
.	.	32qqee/	.	.
.	.	32qqgg#/	.	.
.	.	32qqbb/JJJ	.	.
.	.	8eee'\)	.	.
(8c#\	.	8r	.	.
=2	=2	=2	=2	=2
8.eL 8.d\)	.	8.bL 8.g#/	.	.
16eJk 16d\	.	(16bJk 16g#/	.	.
4.e 4.d\	.	4ee 4b 4g#\)	.	.
.	.	(32qqe/LLL	.	.
.	.	32qqg#/	.	.
.	.	32qqb/	.	.
.	.	32qqee/	.	.
.	.	32qqgg#/	.	.
.	.	32qqbb/JJJ	.	.
.	.	8eee'\)	.	.
(8c#\	.	8r	.	.
=3	=3	=3	=3	=3
!	!	!LO:TX:b:t=sotto voce	!	!
8.eL 8.d\)	.	8.bL 8.g#/	.	.
16eJk 16d\	.	(16bJk 16g#/	.	.
4e 4d\	.	4ee 4g#\)	.	.
4r	.	4r	.	.
*clefG2	*	*	*	*
=4	=4	=4	=4	=4
8.eeL 8.dd\	.	8.bbL 8.gg#\	.	pp
16eeJk 16dd\	.	16bbJk 16gg#\	.	.
2ee 2dd\	.	2eee 2gg#\	.	.
*clefF4	*	*	*	*
!!LO:LB:g=original
=5	=5	=5	=5	=5
*	*	*ped	*	*
!	!	!LO:TX:b:t=misterioso.	!	!LO:DY:rj
4c#: 4E: 4AA:\	.	8.cc#L 8.a\	.	p
.	.	16ddJk 16b\	.	.
4r	.	4ee 4cc#\	.	.
!	!	!	!	!LO:DY:a:rj
8eee>/	.	4ee 4cc#\	.	p
8reee>	.	.	.	.
=6	=6	=6	=6	=6
4e 4A\	.	8.eeL 8.cc#\	.	.
.	.	(16cc#Jk 16a\	.	.
4r	.	8.ff#L 8.dd\)	.	.
.	.	(16eeJk 16cc#\	.	.
8eee>/	.	8.ddL 8.b\)	.	.
8reee>	.	.	.	.
*	*	*Xped	*	*
.	.	(16cc#Jk 16a\	.	.
=7	=7	=7	=7	=7
4e: 4B: 4E:\	.	8.bL 8.g#/)	.	.
*	*	*ped	*	*
.	.	16bJk 16g#/	.	.
4r	.	4.ee 4.g#\	.	.
8eee>/	.	.	.	.
*	*	*Xped	*	*
8reee>	.	8dd 8b\	.	.
=8	=8	=8	=8	=8
*	*	*ped	*	*
4e: 4A: 4AA:\	3 1 2	(8.ddL 8.b\	.	.
.	.	16cc#Jk 16a\)	.	.
4r	.	4cc# 4a\	.	.
*	*	*Xped	*	*
4eee>^>/	.	4rb;<	.	.
=9	=9	=9	=9	=9
*	*	*ped	*	*
4e: 4A:\	.	8.cc#L 8.a\	.	.
.	.	16ddJk 16b\	.	.
4r	.	4ee 4cc#\	.	.
8eee>/	.	4ee 4cc#\	.	.
8reee>	.	.	.	.
=10	=10	=10	=10	=10
4e: 4A:\	.	8.eeL 8.cc#\	.	.
.	.	(16cc#Jk 16a\	.	.
!LO:N:vis=4	!	!	!	!
8.r	.	8.ff#L 8.dd\)	.	.
!LO:N:vis=8	!	!	!	!
(>16ccc#>/KL	.	(>16eeK 16cc#\	.	.
8.ddd>/)	.	8.dd 8.b\)	.	.
*	*	*Xped	*	*
!	!	!LO:TX:t=P:problem:brak początku łuku	!	!
(>16ddd#X>/Jk	.	(>16cc#Jk 16a\	.	.
!!LO:LB:g=original
=11	=11	=11	=11	=11
*	*	*ped	*	*
8eee>/)	.	8.bL 8.g#\)	.	.
8reee>	.	.	.	.
.	.	(16bJk 16g#\	.	.
4.e 4.d\	.	4.ee 4.g#^\)	.	.
*	*	*Xtuplet	*	*
8r	.	(48e\LLL	.	pp
.	.	48g#\	.	.
.	.	48b\	.	.
.	.	48ee\	.	.
.	.	48gg#\	.	.
.	.	48ccc#\JJJ	.	.
*clefG2	*	*	*	*
=12	=12	=12	=12	=12
!	!	!LO:TX:b:t=rall.	!	!
8.eeL 8.dd\	.	8.bbL 8.gg#\)	.	.
16eeJk 16dd\	.	(16bbJk 16gg#\	.	.
4ee 4dd\	.	4eee 4gg#'\)	.	.
4r	.	4r	.	.
=13	=13	=13	=13	=13
*	*	*8va	*	*
.	.	8qcccc#/	.	.
8.eeL 8.dd\	.	8.bbbL 8.ggg#\	.	ppp
16eeJk 16dd\	.	16bbbJk 16ggg#\	.	.
4ee 4dd\	.	4eeee 4ggg#\	.	.
*	*	*X8va	*	*
4r;	.	4r;	.	.
*clefF4	*	*Xped	*	*
=14!|:	=14!|:	=14!|:	=14!|:	=14!|:
*>B	*>B	*>B	*>B	*>B
*	*	*tuplet	*below	*
!	!	!LO:TUP:b	!	!
8A: 8E: 8AA:\	.	(24c#/LL	2	pp
.	.	24e/	1	.
!	!	!LO:TX:b:t=avec une grande legerte\nles 2 ped&colon;	!	!
.	.	24a/	.	.
8r	.	24cc#/	.	.
.	.	24ee/	.	.
.	.	24aa/JJ	.	.
*	*	*ped	*Xbelow	*
4r	.	8ccc#'\)	4	.
.	.	8r	.	.
*clefG2	*	*	*	*
8ee: 8g#: 8e:\	.	8ddd: 8bb:\	2 4	.
*	*	*Xped	*	*
8r	.	8r	.	.
=15	=15	=15	=15	=15
*	*	*ped	*	*
!	!	!LO:TUP:a	!	!
8ee: 8cc#: 8a:\	.	(28ccc#\LL	3	.
.	.	28eee\	.	.
.	.	28ccc#\	.	.
.	.	28aa\	.	.
8r	.	.	.	.
.	.	28ee\	.	.
.	.	28cc#\	.	.
.	.	28a\JJ	.	.
4r	.	8e'/)	.	.
.	.	8r	.	.
.	.	(32qqee/LLL	.	.
.	.	32qqaa/	.	.
.	.	32qqccc#/JJJ	.	.
8cc#: 8a: 8e:/	.	8eee'\)	.	.
*	*	*Xped	*	*
8r	.	8r	.	.
*clefF4	*	*	*	*
!!LO:LB:g=original
=16	=16	=16	=16	=16
*	*	*ped	*	*
!	!	!LO:TUP:a	!	!
8g#: 8B: 8E':\	.	(28bb\LL	.	.
.	.	28eee\	.	.
.	.	28bb\	.	.
.	.	28gg#\	.	.
8r	.	.	.	.
.	.	28ee\	.	.
.	.	28b\	.	.
.	.	28g#\JJ	.	.
4r	.	8e/)	.	.
.	.	8r	.	.
*clefG2	*	*	*	*
.	.	(32qqee/LLL	.	.
.	.	32qqgg#/	.	.
.	.	32qqbb/JJJ	.	.
8b 8g# 8e/	.	8eee\)	.	.
*	*	*Xped	*	*
8r	.	8r	.	.
=17	=17	=17	=17	=17
.	.	(32qqaa/LLL	.	.
.	.	32qqccc#/	.	.
.	.	32qqeee/JJJ	.	.
*	*	*ped	*	*
!	!	!LO:TUP:a	!	!
8cc#: 8e: 8A^:/	.	38aaa^\LLL	.	.
.	.	38ggg#\	.	.
.	.	38fff#\	.	.
.	.	38eee\	.	.
.	.	38ddd\	.	.
8r	.	.	.	.
.	.	38ccc#\	.	.
*	*	*Xped	*	*
.	.	38bb\	.	.
.	.	38aa\	.	.
.	.	38gg#\	.	.
.	.	38ff#\	.	.
4r	.	.	.	.
.	.	38ee\	.	.
.	.	38dd\	.	.
.	.	38cc#\	.	.
.	.	38b\	.	.
.	.	38a\	.	.
.	.	38g#\	.	.
.	.	38f#\	.	.
.	.	38e\	.	.
.	.	38d\JJJ	.	.
*clefF4	*	*ped	*	*
8A 8AA\	.	8c#^/)	.	.
8r	.	8r	.	.
=18	=18	=18	=18	=18
(32qqAA/LLL	.	.	.	.
32qqE/JJJ	.	.	.	.
*	*	*Xtuplet	*	*
8A'\)	.	(36c#\LLL	.	.
.	.	36e\	.	.
.	.	36a\	.	.
.	.	36cc#\	.	.
.	.	36ee\	.	.
8r	.	.	.	.
.	.	36aa\	.	.
.	.	36ccc#\	.	.
*	*	*8va	*	*
.	.	36eee\	.	.
.	.	36aaa\JJJ	.	.
*	*	*Xped	*	*
4r	.	8cccc#\)	.	.
*	*	*ped	*	*
.	.	8r	.	.
*clefG2	*	*	*	*
8ee: 8g#: 8e:/	.	8dddd 8bbb'\	.	.
*	*	*Xped	*	*
8r	.	8r	.	.
!!LO:LB:g=original
=19	=19	=19	=19	=19
!LO:TX:b:t=Signe pour oter la pedale sur une seule corde (jen celeste)	!	!	!	!
!LO:TX:b:t=Signe pour oter la pedale qui leve les etouffoirs	!	!	!	!
8ee: 8cc#: 8a:\	.	(40cccc#\LLL	3	.
.	.	40eeee\	5	.
.	.	40cccc#\	3	.
.	.	40aaa\	2	.
.	.	40eee\	1	.
8r	.	40ccc#\	3	.
.	.	40aa\	2	.
*	*	*X8va	*	*
.	.	40ee\	1	.
.	.	40cc#\	3	.
.	.	40a\JJJ	2	.
4r	.	8e'/)	.	.
.	.	8r	.	.
*	*	*8va	*	*
.	.	(32qqeee/LLL	.	.
.	.	32qqaaa/	.	.
.	.	32qqcccc#/JJJ	.	.
*	*	*Xped	*	*
8ee 8cc# 8a\	.	8eeee'\)	.	.
!LO:TX:a:t=☀	!	!	!	!
8r	.	8r	.	.
*clefF4	*	*	*	*
=20	=20	=20	=20	=20
*^	*	*	*	*
*	*	*	*tuplet	*	*
*	*	*	*ped	*	*
!	!	!	!LO:TUP:a	!	!LO:HP:a
8B 8BB\	4ryy	.	(28ddd#XLL 28bb\	4	f <
.	.	.	28ccc#\	3	.
.	.	.	28bb\	1	.
.	.	.	28aa#X\	2	.
8r	.	.	.	.	.
.	.	.	28bb\	1	.
.	.	.	28bb#X\	.	.
.	.	.	28ccc#\	.	.
*	*	*	*Xped	*	*
4B/	2B^\	.	28dddn\	.	.
.	.	.	28ddd#X\	.	.
.	.	.	28eee\	.	.
.	.	.	28eee#X\	.	.
.	.	.	28fff#\	.	.
.	.	.	28fff##X\	.	.
.	.	.	28ggg#\	.	.
32qqd#X/LLL	.	.	.	.	.
32qqf#/JJJ	.	.	.	.	.
8b/L	.	.	28aaa\	.	.
.	.	.	28aaa#X\	.	.
.	.	.	28bbb\	.	.
.	.	.	28bbb#X\	.	.
8a/J	.	.	.	.	.
.	.	.	28cccc#\	.	.
.	.	.	28ddddn\	.	.
.	.	.	28dddd#X\JJ	.	[[
=21	=21	=21	=21	=21	=21
*>B1	*>B1	*>B1	*>B1	*>B1	*>B1
*	*	*	*ped	*	*
8g#/	8e\	.	8eeee\)	5	.
*	*	*	*X8va	*	*
8r	8ryy	.	8r	.	.
.	.	.	(32qqE</LLL	.	.
.	.	.	32qqG#</	.	.
.	.	.	32qqB</	.	.
.	.	.	32qqe</JJJ	.	.
.	.	.	32qqg#/LLL	.	.
.	.	.	32qqb/JJJ	.	.
4r	4ryy	.	4ee^\)	.	.
4ryy	4ryy	.	32dd/LLL	.	.
.	.	.	32cc#/	.	.
.	.	.	32b/	.	.
.	.	.	32a/	.	.
*	*	*	*Xped	*	*
.	.	.	32g#/	.	.
.	.	.	32f#/	.	.
.	.	.	32e/	.	.
.	.	.	32d/JJJ	.	.
=22:|!	=22:|!	=22:|!	=22:|!	=22:|!	=22:|!
*>B2	*>B2	*>B2	*>B2	*>B2	*>B2
8g#/	8e\	.	8eee^\	.	.
8r	8ryy	.	8r	.	.
.	.	.	32qqe/LLL	.	f
.	.	.	32qqg#/	.	.
.	.	.	32qqb/JJJ	.	.
.	.	.	32qqE</LLL	.	.
.	.	.	32qqG#</	.	.
.	.	.	32qqB</JJJ	.	.
4ryy	4ryy	.	8ee'\	.	.
.	.	.	8r	.	.
8ryy	8ryy	.	8r	.	.
!!LO:PB:g=original
=||	=||	=||	=||	=||	=||
*>C	*>C	*>C	*>C	*>C	*>C
!	!	!	!LO:TX:b:t=les deux pedales	!	!LO:DY:rj
8r	8ryy	.	(16b\LL	.	pp
.	.	.	16cc#\JJ	.	.
*v	*v	*	*	*	*
=23	=23	=23	=23	=23
.	.	8qee/	.	.
8EE'/	.	16dd\LL	.	.
.	.	16cc#\	.	.
8r	.	16dd\	.	.
.	.	16b\JJ)	.	.
!	!	!LO:N:vis=8	!	!
!	!	!LO:TX:a:t=M.G.:rj	!	!
4eee>^>/	.	4r	.	.
4r	.	(16ee\LL	.	.
.	.	16dd\	.	.
.	.	16cc#\	.	.
*	*	*Xped	*	*
.	.	16b\JJ)	.	.
=24	=24	=24	=24	=24
.	.	8qee/	.	.
*	*	*ped	*	*
8AA'/	.	(16cc#\LL	.	.
.	.	16b\	.	.
8r	.	16cc#\	.	.
.	.	16a\JJ)	.	.
(8qddd#X>/	.	.	.	.
4eee>^>/)	.	4r	.	.
4r	.	(16ee\LL	.	.
.	.	16cc#\	.	.
.	.	16b\	.	.
.	.	16a\JJ)	.	.
*	*	*Xped	*	*
=25	=25	=25	=25	=25
*	*	*ped	*	*
8EE'/	.	(16g#\LL	.	.
.	.	16a\	.	.
8r	.	16a#X\	.	.
.	.	16cc#\JJ)	.	.
(8qddd#X>/	.	.	.	.
4eee>^>/)	.	4r	.	.
!	!	!LO:TUP:a:problem:klamra łukowa	!	!
4r	.	20g#\LL	.	.
.	.	20an\	.	.
.	.	20a#X\	.	.
.	.	20cc#\	.	.
*	*	*Xped	*	*
.	.	20b\JJ	.	.
!!LO:LB:g=original
=26	=26	=26	=26	=26
*	*	*ped	*	*
!	!	!LO:TUP:a:problem:klamra łukowa	!	!
8AA/	.	24a\LL	.	p
.	.	24b\	.	.
.	.	24cc#\	.	.
8r	.	24dd\	1	.
.	.	24ff#\	4	.
.	.	24ee\JJ	3	.
*	*	*Xtuplet	*	*
8eee>'>/	.	13r	.	.
.	.	(52aa\LLL	.	pp
.	.	52bb\	.	.
.	.	52ccc#\	.	.
8r	.	.	.	.
.	.	52ddd\	.	.
.	.	52ddd#X\	.	.
!	!	!LO:TX:b:t=riten.	!	!
.	.	52fff#\	.	.
.	.	52eee\J	.	.
.	.	26aaa'\JJ)	.	.
.	.	(32qqggg#/LLL	.	.
.	.	32qqaaa/JJJ	.	.
*	*	*rscale:1/2	*	*
4r	.	48ggg#\LLLL	.	ppp
.	.	48fff#\	.	.
.	.	48eee\	.	.
.	.	48ddd#\	.	.
.	.	48ccc#\	.	.
.	.	48bb\	.	.
*	*	*Xped	*	*
.	.	48aa\	.	.
.	.	48gg#\	.	.
.	.	48ff#\	.	.
.	.	48ee\	.	.
.	.	48dd\	.	.
.	.	48cc#\JJJJ)	.	.
=27	=27	=27	=27	=27
*	*	*rscale:1	*	*
.	.	8qee/	.	.
8EE/	.	(16dd\LL	.	mf
.	.	16cc#\	.	.
8r	.	16dd\	.	.
.	.	16b\JJ)	.	.
*8va	*	*	*	*
!	!	!LO:TX:a:t=M.G.	!	!
8qddd#X>/	.	.	.	.
8eee>/	.	4r	.	pp
8qdddd#X>/	.	.	.	.
8eeee>'/	.	.	.	.
*X8va	*	*	*	*
4r	.	(16ee\LL	.	.
.	.	16dd\	.	.
.	.	16cc#\	.	.
.	.	16b\JJ)	.	.
=28	=28	=28	=28	=28
.	.	8qee/	.	.
8AA/	.	(16cc#\LL	.	mf
.	.	16b\	.	.
8r	.	16cc#\	.	.
.	.	16a\JJ)	.	.
*8va	*	*	*	*
8qddd#X>/	.	.	.	.
8eee>/	.	4r	.	pp
8qdddd#X>/	.	.	.	.
8eeee>'/	.	.	.	.
*X8va	*	*Xped	*	*
4r	.	(16ee\LL	.	.
.	.	16cc#\	.	.
.	.	16b\	.	.
!	!	!LO:TX:b:t=☀	!	!
.	.	16a\JJ)	.	.
!!LO:LB:g=original
=29	=29	=29	=29	=29
*	*	*	*	*^
*	*	*ped	*	*	*
!	!	!	!	!	!LO:DY:b=2:rj
4G# 4GG#/	.	16r	.	f	f
.	.	(16gg#\LL	.	.	.
.	.	16bb#X\	.	.	.
.	.	16ddd#X\JJ	.	.	.
!	!	!	!	!	!LO:DY:b=2
2g# 2G#^<\	.	8ggg#'\L)	.	.	sf
*	*	*tuplet	*	*	*
!	!	!LO:TUP:a	!	!	!
.	.	(24gg#\L	.	.	.
.	.	24aa\	.	.	.
.	.	24gg#\JJ	.	.	.
.	.	16ff#\LL	.	.	.
.	.	16gg#\	.	.	.
.	.	16dd#X\	.	.	.
*	*	*Xped	*	*	*
.	.	16gg#\JJ)	.	.	.
*	*	*	*	*v	*v
=30	=30	=30	=30	=30
*	*	*ped	*	*
*	*	*Xtuplet	*	*
4e 4c#\	.	12cc#\L	.	f
.	.	24ee'\L	3	.
.	.	24ee'\JJ	3	.
!	!	!	!	!LO:HP:t=decres.
.	.	48dd#X\LLL	2	>
.	.	48dd#\	3	.
.	.	48ddn'\	.	.
*	*	*Xped	*	*
.	.	48dd'\JJJ	.	.
*	*	*rscale:1/2	*	*
8r	.	16cc#'\LL	.	p
.	.	16cc#'\JJ	.	.
*	*	*rscale:1	*	*
*	*	*tuplet	*	*
*	*	*Xbrackettup	*	*
!	!	!LO:TX:t=P:problem:w źródle grupa 32 zamiast 64	!	!
!	!	!LO:TUP:a:num=13	!	!LO:DY:b=2
4.g#: 4.B: 4.E;:\	.	(112%3a#X\LLL	2	fp
.	.	112%3b\	1	.
*	*	*ped	*	*
.	.	112%3b#X\	.	.
.	.	112%3cc#\	.	.
.	.	112%3dd\	1	.
!	!	!LO:TX:b:t=rall.	!	!
.	.	112%3dd#X\	2	.
.	.	112%3gg#\	4	.
.	.	112%3ff#\	3	.
.	.	112%3a#\	2	.
.	.	112%3b#\JJJ	1	.
.	.	112%3ee\LLL	5	pp
.	.	112%3dd#X\J	4	.
.	.	56%3ddn^;\JJ)	3	.
=31	=31	=31	=31	=31
32qqAA/LLL	.	.	.	.
32qqE/JJJ	.	.	.	.
!	!	!LO:TUP:a	!	!
!	!	!LO:TX:a:t=a tempo	!	!LO:DY:rj
8A'\	.	(24c#^\LL	.	pp
!	!	!LO:TX:b:t=les deux	!	!
.	.	24e\	.	.
.	.	24a\	.	.
8r	.	24cc#\	.	.
.	.	24ee\	.	.
.	.	24aa\JJ	.	.
*	*	*ped	*	*
4r	.	8ccc#'\)	.	.
*	*	*Xped	*	*
.	.	8r	.	.
*clefG2	*	*ped	*	*
8ee 8g# 8e/	.	8ddd 8bb'\	.	.
8r	.	8r	.	.
*	*	*Xped	*	*
!!LO:LB:g=original
=32	=32	=32	=32	=32
*	*	*ped	*	*
!	!	!LO:TUP:a	!	!
8ee: 8cc#: 8a':\	.	(28ccc#\LL	.	.
.	.	28eee\	.	.
.	.	28ccc#\	.	.
.	.	28aa\	.	.
8r	.	.	.	.
.	.	28ee\	.	.
.	.	28cc#\	.	.
.	.	28a\JJ	.	.
4r	.	8e'/)	.	.
.	.	8r	.	.
.	.	(32qqee/LLL	.	.
.	.	32qqaa/	.	.
.	.	32qqccc#/JJJ	.	.
8ee: 8cc#: 8a: 8e':\	.	8eee\)	.	.
8r	.	8r	.	.
*clefF4	*	*Xped	*	*
=33	=33	=33	=33	=33
*	*	*ped	*	*
*	*	*Xtuplet	*	*
8g# 8B 8E\	.	(28bb\LL	.	.
.	.	28eee\	.	.
.	.	28bb\	.	.
.	.	28gg#\	.	.
8r	.	.	.	.
.	.	28ee\	.	.
.	.	28b\	.	.
.	.	28g#\JJ	.	.
4r	.	8e/)	.	.
.	.	8r	.	.
*clefG2	*	*	*	*
.	.	(32qqee/LLL	.	.
.	.	32qqgg#/	.	.
.	.	32qqbb/JJJ	.	.
8b: 8g#: 8e: 8d':/	.	8eee'\)	.	.
*	*	*Xped	*	*
8r	.	8r	.	.
=34	=34	=34	=34	=34
*	*	*ped	*	*
.	.	(>32qqaa/LLL	.	.
.	.	32qqccc#/	.	.
.	.	32qqeee/JJJ)	.	.
8a: 8e: 8c#':/	.	(38aaa\LLL	.	.
.	.	38ggg#\	.	.
.	.	38fff#\	.	.
.	.	38eee\	.	.
.	.	38ddd\	.	.
8r	.	.	.	.
.	.	38ccc#\	.	.
.	.	38bb\	.	.
.	.	38aa\	.	.
*	*	*Xped	*	*
.	.	38gg#\	.	.
.	.	38ff#\	.	.
4r	.	.	.	.
.	.	38ee\	.	.
.	.	38dd\	.	.
.	.	38cc#\	.	.
.	.	38b\	.	.
.	.	38a\	.	.
.	.	38g#\	.	.
.	.	38f#\	.	.
.	.	38e\	.	.
.	.	38d\JJJ	.	.
*clefF4	*	*ped	*	*
8A 8AA\	.	8c#^/)	.	.
8r	.	8r	.	.
!!LO:LB:g=original
=35	=35	=35	=35	=35
*	*	*Xped	*	*
32qqAA/LLL	.	.	.	.
32qqC#/	.	.	.	.
32qqE/JJJ	.	.	.	.
!	!	!	!	!LO:DY:rj
8A^\	.	36c#\LLL	.	f
.	.	36e\	.	.
.	.	36a\	.	.
.	.	36cc#\	.	.
.	.	36ee\	.	.
8r	.	.	.	.
.	.	36aa\	.	.
.	.	36ccc#\	.	.
*	*	*8va	*	*
.	.	36eee\	.	.
.	.	36aaa\JJJ	.	.
*	*	*Xped	*	*
4r	.	8cccc#'\	.	.
*	*	*ped	*	*
.	.	8r	.	.
*clefG2	*	*	*	*
8ee: 8b: 8g#: 8e':\	.	8dddd: 8ggg#: 8eee:\	.	.
*	*	*Xped	*	*
8r	.	8r	.	.
=36	=36	=36	=36	=36
*	*	*ped	*	*
8ee: 8cc#: 8a:\	.	40cccc#\LLL	.	.
.	.	40eeee\	.	.
.	.	40cccc#\	.	.
.	.	40aaa\	.	.
.	.	40eee\	.	.
8r	.	40ccc#\	.	.
.	.	40aa\	.	.
*	*	*X8va	*	*
.	.	40ee\	.	.
.	.	40cc#\	.	.
.	.	40a\JJJ	.	.
4r	.	8e/	.	.
*	*	*Xped	*	*
.	.	8r	.	.
*clefF4	*	*ped	*	*
!	!	!	!	!LO:DY:b=2:rj
8e: 8c#: 8F#:\	.	24ff#\LL	1	f
.	.	24aa#X\	2	.
.	.	24ccc#\J	3	.
*	*	*Xped	*	*
8r	.	8fff#X\J	5	sf
=37	=37	=37	=37	=37
*>C1	*>C1	*>C1	*>C1	*>C1
*	*	*ped	*	*
!	!	!	!	!LO:DY:b=2:rj
4B 4BB\	.	16r	.	f
*	*	*8va	*	*
.	.	16bb'\LL	.	.
.	.	16ddd'\	.	.
.	.	16fff#'\JJ	.	.
8d 8B 8F#\	.	8bbb'\L	.	.
*	*	*Xped	*	*
8r	.	8bb'\J	.	.
*	*	*ped	*	*
8B 8E^\	.	8eeee\L	.	.
*	*	*X8va	*	*
8r	.	16r	.	.
.	.	(16gg#Jk (16dd\	.	.
*	*	*Xped	*	*
=38	=38	=38	=38	=38
*	*	*ped	*	*
8A 8AA\	.	4aa 4cc#\))	.	.
8r	.	.	.	.
!	!	!LO:TX:t=P:problem:brak pauzy 8r	!	!
8AA 8AAA/	.	8ryy	.	.
*	*	*Xped	*	*
8r	.	8r	.	.
!!LO:PB:g=original
=39:|!	=39:|!	=39:|!	=39:|!	=39:|!
*>C2	*>C2	*>C2	*>C2	*>C2
*	*	*ped	*	*
!	!	!LO:N:vis=8	!	!
4B 4BB\	.	16r	.	f
*	*	*8va	*	*
.	.	16bb'\LL	.	.
.	.	16ddd'\	.	.
.	.	16fff#'\JJ	.	.
8d 8B 8F#\	.	8bbb'\L	.	.
*	*	*Xped	*	*
8r	.	8bb'\J	.	.
*	*	*ped	*	*
!	!	!LO:TX:t=P:problem:mixed beam	!	!
8E 8EE\	.	8eeee\L	.	sf
*	*	*X8va	*	*
8r	.	16r	.	.
*	*	*Xped	*	*
!	!	!LO:N:vis=8	!	!
.	.	16G#<Jk 16D</	.	.
=40||	=40||	=40||	=40||	=40||
*>D	*>D	*>D	*>D	*>D
*	*	*ped	*	*
32AAA\LLL	.	4A< 4C#</	.	fp
!LO:TX:a:t=tremolo.	!	!	!	!
32AA\	.	.	.	.
32AAA\	.	.	.	.
32AA\JJJ	.	.	.	.
32AAA\LLL	.	.	.	.
32AA\	.	.	.	.
32AAA\	.	.	.	.
32AA\JJJ	.	.	.	.
*tremolo	*	*	*	*
32AAA\LLL	.	4r	.	.
32AA\	.	.	.	.
32AAA\	.	.	.	.
32AA\	.	.	.	.
32AAA\	.	.	.	.
32AA\	.	.	.	.
32AAA\	.	.	.	.
32AA\	.	.	.	.
32AAA\	.	4r	.	.
32AA\	.	.	.	.
32AAA\	.	.	.	.
32AA\	.	.	.	.
32AAA\	.	.	.	.
32AA\	.	.	.	.
32AAA\	.	.	.	.
32AA\JJJ	.	.	.	.
*Xtremolo	*	*Xped	*	*
=41||	=41||	=41||	=41||	=41||
*	*	*^	*	*
*	*	*ped	*	*	*
32AAA\LLL	.	(24G#</LL	24G#<\LL	.	f <
32BB\	.	.	.	.	.
.	.	24A</	24A<\	.	.
32AAA\	.	.	.	.	.
.	.	24A#X</	24A#<\JJ	.	.
32BB\JJJ	.	.	.	.	.
32AAA\LLL	.	24B</	8ryy	.	.
32BB\	.	.	.	.	.
.	.	24B#X</	.	.	.
32AAA\	.	.	.	.	.
.	.	24c#</JJ)	.	.	.
32BB\JJJ	.	.	.	.	[
32AAA\LLL	.	4d<^/	4ryy	.	.
32BB\	.	.	.	.	.
32AAA\	.	.	.	.	.
32BB\JJJ	.	.	.	.	.
32AAA\LLL	.	.	.	.	.
32BB\	.	.	.	.	.
32AAA\	.	.	.	.	.
32BB\JJJ	.	.	.	.	.
.	.	.	(<8qBny/	.	.
32AAA\LLL	.	(8.fn^/L	4Bny\)	.	.
32BB\	.	.	.	.	.
32AAA\	.	.	.	.	.
32BB\JJJ	.	.	.	.	.
32AAA\LLL	.	.	.	.	.
32GG#\	.	.	.	.	.
32AAA\	.	16e/Jk)	.	.	.
32GG#\JJJ	.	.	.	.	.
*	*	*Xped	*	*	*
!!LO:LB:g=original
=42	=42	=42	=42	=42	=42
*	*	*ped	*	*	*
!	!	!	!	!	!LO:HP:a
32AAA/LLL	.	(24c#/LL	24c#\LL	.	<
32AA/	.	.	.	.	.
.	.	24d/	24d\	.	.
32AAA/	.	.	.	.	.
.	.	24d#X/	24d#\JJ	.	.
32AA/JJJ	.	.	.	.	.
32AAA/LLL	.	24e/	4.e\	.	.
32AA/	.	.	.	.	.
.	.	24f#/	.	.	.
32AAA/	.	.	.	.	.
.	.	24g#/JJ)	.	.	[
32AA/JJJ	.	.	.	.	.
*tremolo	*	*	*	*	*
32AAA/LLL	.	4a^/	.	.	.
32AA/	.	.	.	.	.
32AAA/	.	.	.	.	.
32AA/	.	.	.	.	.
32AAA/	.	.	.	.	.
32AA/	.	.	.	.	.
32AAA/	.	.	.	.	.
32AA/	.	.	.	.	.
.	.	.	(<8qe/	.	.
32AAA/	.	8.cc#^/L	4e\)	.	.
32AA/	.	.	.	.	.
32AAA/	.	.	.	.	.
32AA/	.	.	.	.	.
32AAA/	.	.	.	.	.
32AA/	.	.	.	.	.
32AAA/	.	16a/Jk	.	.	.
*	*	*Xped	*	*	*
32AA/JJJ	.	.	.	.	.
=43	=43	=43	=43	=43	=43
*	*	*ped	*	*	*
32AAA/LLL	.	(24g#/LL	24g#\LL	.	.
32BB/	.	.	.	.	.
.	.	24a/	24a\	.	<
32AAA/	.	.	.	.	.
.	.	24a#X/	24a#\JJ	.	.
32BB/	.	.	.	.	.
32AAA/	.	24b/	4.b\	.	.
32BB/	.	.	.	.	.
.	.	24b#X/	.	.	.
32AAA/	.	.	.	.	.
.	.	24cc#/JJ)	.	.	.
32BB/	.	.	.	.	.
32AAA/	.	4dd^/	.	.	.
32BB/	.	.	.	.	.
32AAA/	.	.	.	.	.
32BB/	.	.	.	.	.
32AAA/	.	.	.	.	.
32BB/	.	.	.	.	.
32AAA/	.	.	.	.	.
32BB/JJJ	.	.	.	.	.
*Xtremolo	*	*	*	*	*
.	.	.	(<8qbny/	.	.
32AAA/LLL	.	(8.ffn^/L	4bny\)	.	[
32GG#/	.	.	.	.	.
32AAA/	.	.	.	.	.
32GG#/JJJ	.	.	.	.	.
32AAA/LLL	.	.	.	.	.
32GG#/	.	.	.	.	.
32AAA/	.	16ee/Jk)	.	.	.
*	*	*Xped	*	*	*
32GG#/JJJ	.	.	.	.	.
=44	=44	=44	=44	=44	=44
*tremolo	*	*ped	*	*	*
32AAA/LLL	.	(24cc#/LL	24cc#\LL	.	.
32AA/	.	.	.	.	.
.	.	24dd/	24dd\	.	<
32AAA/	.	.	.	.	.
.	.	24dd#X/	24dd#\JJ	.	.
32AA/	.	.	.	.	.
32AAA/	.	32ee/L	4.ee\	.	.
32AA/	.	32ee#X/	.	.	.
32AAA/	.	32ff#/	.	.	.
32AA/	.	32gg#/JJJ)	.	.	.
32AAA/	.	4aa^</	.	.	.
32AA/	.	.	.	.	.
32AAA/	.	.	.	.	.
32AA/	.	.	.	.	.
32AAA/	.	.	.	.	.
32AA/	.	.	.	.	.
32AAA/	.	.	.	.	.
32AA/	.	.	.	.	.
.	.	.	(<8qeeny/	.	.
32AAA/	.	8.ccc#/L	4eeny^>\)	.	[
32AA/	.	.	.	.	.
32AAA/	.	.	.	.	.
32AA/	.	.	.	.	.
32AAA/	.	.	.	.	.
32AA/	.	.	.	.	.
32AAA/	.	16aa/Jk	.	.	.
*	*	*Xped	*	*	*
32AA/JJJ	.	.	.	.	.
*	*	*v	*v	*	*
!!LO:LB:g=original
=45	=45	=45	=45	=45
*	*	*^	*	*
*	*	*ped	*	*	*
*	*	*8va	*	*	*
32AAA/LLL	.	(24gg#/LL	24gg#\LL	.	<
32BB/	.	.	.	.	.
.	.	24aa/	24aa\	.	.
32AAA/	.	.	.	.	.
.	.	24aa#X/	24aa#\JJ	.	.
32BB/	.	.	.	.	.
32AAA/	.	24bb/	4.bb\	.	.
32BB/	.	.	.	.	.
.	.	24bb#X/	.	.	.
32AAA/	.	.	.	.	.
.	.	24ccc#/JJ)	.	.	.
32BB/	.	.	.	.	.
32AAA/	.	4ddd^/	.	.	[
32BB/	.	.	.	.	.
32AAA/	.	.	.	.	.
32BB/	.	.	.	.	.
32AAA/	.	.	.	.	.
32BB/	.	.	.	.	.
32AAA/	.	.	.	.	.
32BB/JJJ	.	.	.	.	.
*Xtremolo	*	*	*	*	*
.	.	.	(<8qbbny/	.	.
32AAA/LLL	.	8.fffn/L	4bbny\)	.	.
32GG#/	.	.	.	.	.
32AAA/	.	.	.	.	.
32GG#/JJJ	.	.	.	.	.
32AAA/LLL	.	.	.	.	.
32GG#/	.	.	.	.	.
32AAA/	.	16eee/Jk	.	.	.
*	*	*Xped	*	*	*
32GG#/JJJ	.	.	.	.	.
=46	=46	=46	=46	=46	=46
*tremolo	*	*ped	*	*	*
32AAA/LLL	.	24ccc#/LL	24ccc#\LL	.	<
32AA/	.	.	.	.	.
.	.	24ddd/	24ddd\	.	.
32AAA/	.	.	.	.	.
.	.	24ddd#X/	24ddd#\JJ	.	.
32AA/	.	.	.	.	.
32AAA/	.	32eee/L	4.eee\	.	.
32AA/	.	32eee#X/	.	.	.
32AAA/	.	32fff#/	.	.	.
32AA/	.	32ggg#/JJJ	.	.	.
32AAA/	.	4aaa^</	.	.	.
32AA/	.	.	.	.	.
32AAA/	.	.	.	.	.
32AA/	.	.	.	.	.
32AAA/	.	.	.	.	.
32AA/	.	.	.	.	.
32AAA/	.	.	.	.	.
32AA/	.	.	.	.	.
.	.	.	(<8qeeeny/	.	.
32AAA/	.	8.cccc#/L	4eeeny^\)	.	[
32AA/	.	.	.	.	.
32AAA/	.	.	.	.	.
32AA/	.	.	.	.	.
32AAA/	.	.	.	.	.
32AA/	.	.	.	.	.
*	*	*Xped	*	*	*
32AAA/	.	16aaa/Jk	.	.	.
32AA/JJJ	.	.	.	.	.
*Xtremolo	*	*	*	*	*
*	*	*v	*v	*	*
=47	=47	=47	=47	=47
*	*	*	*	*^
*	*	*ped	*	*	*
*	*	*tuplet	*	*	*
!	!	!LO:TUP:a	!	!LO:DY:rj	!LO:DY:b=2:rj
4..BB 4..BBB/	.	24ddd#X\LL	.	f	f
.	.	24fff#\	.	.	.
.	.	24ddd#\	.	.	.
.	.	24bb\	.	.	.
.	.	24bbb\	.	.	.
.	.	24bb\JJ	.	.	.
!	!	!LO:TUP:a	!	!	!
.	.	24ddd#X\LL	.	.	.
.	.	24fff#\	.	.	.
.	.	24ddd#\	.	.	.
.	.	24bb\	.	.	.
.	.	24bbb\	.	.	.
*clefG2	*	*	*	*	*
16bKL 16B^/	.	.	.	.	.
.	.	24bb\JJ	.	.	.
*	*	*Xtuplet	*	*	*
8.b 8.B^/	.	24ddd#X\LL	.	.	.
.	.	24fff#\	.	.	.
.	.	24ddd#\	.	.	.
.	.	24bb\	.	.	.
.	.	24bbb\	.	.	.
16bJk 16B^/	.	.	.	.	.
*	*	*Xped	*	*	*
.	.	24bb\JJ	.	.	.
*	*	*	*	*v	*v
!!LO:LB:g=original
=48	=48	=48	=48	=48
*	*	*ped	*	*
4.g# 4.e^>/	.	24eeee\LL	.	.
.	.	24eee\	.	.
.	.	24eeee\	.	.
.	.	24dddd#X\	.	.
.	.	24ddd#X\	.	.
.	.	24dddd#\JJ	.	.
.	.	24eeee\LL	.	.
.	.	24eee\	.	.
.	.	24eeee\	.	.
8bL 8B^>/	.	24dddd#X\	.	.
.	.	24ddd#\	.	.
.	.	24dddd#\JJ	.	.
8g# 8e^>/	.	24eeee\LL	.	.
.	.	24eee\	.	.
.	.	24eeee\	.	.
8bJ 8B^>/	.	24dddd#X\	.	.
.	.	24ddd#\	.	.
*	*	*Xped	*	*
.	.	24dddd#\JJ	.	.
=49	=49	=49	=49	=49
*	*	*ped	*	*
4.g# 4.e/	.	24eeee\LL	.	.
.	.	24eee\	.	.
.	.	24eeee\	.	.
.	.	24dddd#X\	.	.
.	.	24ddd#y\	.	.
.	.	24dddd#\JJ	.	.
.	.	24eeee\LL	.	.
.	.	24eee\	.	.
.	.	24eeee\	.	.
8bL 8B/	.	24dddd#X\	.	.
.	.	24ddd#\	.	.
.	.	24dddd#\JJ	.	.
8g# 8e^>/	.	24eeee\LL	.	.
.	.	24eee\	.	.
.	.	24eeee\	.	.
8bJ 8B^>/	.	24dddd#X\	.	.
.	.	24ddd#\	.	.
.	.	24dddd#\JJ	.	.
=50	=50	=50	=50	=50
8g#L 8e^/	.	24eeee\LL	.	.
.	.	24eee\	.	.
.	.	24eeee\	.	.
8b 8B^/	.	24dddd#X\	.	.
.	.	24ddd#X\	.	.
.	.	24dddd#\JJ	.	.
8g# 8e^/	.	24eeee\LL	.	.
.	.	24eee\	.	.
.	.	24eeee\	.	.
8b 8B^/	.	24dddd#X\	.	.
.	.	24ddd#\	.	.
.	.	24dddd#\JJ	.	.
8g# 8e^/	.	24eeee\LL	.	.
.	.	24eee\	.	.
.	.	24eeee\	.	.
8bJ 8B^/	.	24dddd#X\	.	.
.	.	24ddd#\	.	.
*	*	*Xped	*	*
.	.	24dddd#\JJ	.	.
!!LO:LB:g=original
=51	=51	=51	=51	=51
8g#L 8e\	.	(24eeee^\LL	.	ff
.	.	24eee\	.	.
.	.	24eeee\	.	.
8bb#X^\	.	24dddd#X^\	.	.
.	.	24ddd#y\	.	.
.	.	24dddd#\JJ	.	.
8bbn^\	.	24ddddn^\LL	.	.
.	.	24dddny\	.	.
.	.	24dddd\	.	.
8aa#X^\	.	24cccc#^\	.	.
.	.	24ccc#\	.	.
.	.	24cccc#\JJ	.	.
8aan^\	.	24ccccn\LL	.	.
.	.	24cccny\	.	.
.	.	24cccc\	.	.
8gg#^\J	.	24bbb^\	.	.
.	.	24bb\	.	.
.	.	24bbb\JJ	.	.
=52	=52	=52	=52	=52
8ggn^\L	.	24bbb-X^\LL	.	.
.	.	24bb-y\	.	.
.	.	24bbb-\	.	.
8ff#^\	.	24aaa^\	.	.
.	.	24aa\	.	.
.	.	24aaa\JJ	.	.
8ffn^\	.	24ggg#^\LL	.	.
.	.	24gg#\	.	.
.	.	24ggg#\	.	.
8ee^\	.	24gggn^\	.	.
.	.	24ggn\	.	.
.	.	24ggg\JJ	.	.
8dd#X^\	.	24fff#^\LL	.	.
.	.	24ff#\	.	.
.	.	24fff#\	.	.
8ddn^\J	.	24fffn^\	.	.
.	.	24ffn\	.	.
.	.	24fff\JJ	.	.
=53	=53	=53	=53	=53
8cc#^/L	.	24eee^/LL	.	.
.	.	24ee/	.	.
.	.	24eee/	.	.
8b#X^/	.	24ddd#X^/	.	.
.	.	24dd#y/	.	.
.	.	24ddd#/JJ	.	.
8bn^/	.	24dddn^/LL	.	.
.	.	24ddny/	.	.
.	.	24ddd/	.	.
8a#X^/	.	24ccc#^/	.	.
.	.	24cc#/	.	.
!	!	!	!	!LO:HP:t=decres.
.	.	24ccc#/JJ	.	>
8an^/	.	24cccn^/LL	.	.
.	.	24ccny/	.	.
.	.	24ccc/	.	.
8g#^/J	.	24bb^/	.	.
.	.	24b/	.	.
.	.	24bb/JJ	.	.
*	*	*X8va	*	*
!!LO:LB:g=original
=54	=54	=54	=54	=54
8gn^/L	.	24bb-X^\LL	.	.
.	.	24b-X\	.	.
.	.	24bb-\	.	.
8f#^/	.	24aa^\	.	.
.	.	24a\	.	.
.	.	24aa\JJ	.	.
8fn^/	.	24gg#^\LL	.	.
.	.	24g#\	.	.
.	.	24gg#\	.	.
8e^/	.	24ggn^\	.	.
.	.	24gn\	.	.
.	.	24gg\JJ	.	.
8d#X^/	.	24ff#^\LL	.	.
.	.	24f#\	.	.
.	.	24ff#\	.	.
8dn^/J	.	24ffn^\	.	.
.	.	24fn\	.	.
.	.	24ff\JJ)	.	.
=55	=55	=55	=55	=55
8e/	.	8ee\	.	f
*	*	*tuplet	*	*
!	!	!LO:TUP:a	!	!
!	!	!LO:TX:b:t=con fuoco	!	!
8r	.	24ee\LL	.	.
.	.	24eee\	.	.
.	.	24ee\JJ	.	.
*	*	*Xtuplet	*	*
4r	.	20ee\LL	3	.
.	.	20ee\	2	.
.	.	20ee\	1	.
*	*	*ped	*	*
.	.	20eee\	5	.
.	.	20ee\JJ	.	.
4r	.	20ee\LL	3	.
.	.	20ee\	2	.
.	.	20ee\	1	.
.	.	20eee\	5	.
.	.	20ee\JJ	1	.
=56	=56	=56	=56	=56
2.r	.	20ee\LL	.	.
.	.	20ee\	.	.
.	.	20ee\	.	.
.	.	20eee\	.	.
.	.	20ee\JJ	.	.
.	.	20ee\LL	.	.
.	.	20ee\	.	.
.	.	20ee\	.	.
.	.	20eee\	.	.
.	.	20ee\JJ	.	.
.	.	20ee\LL	.	.
.	.	20ee\	.	.
.	.	20ee\	.	.
.	.	20eee\	.	.
.	.	20ee\JJ	.	.
*clefF4	*	*	*	*
!!LO:PB:g=original
=57	=57	=57	=57	=57
2.r	.	20ee\LL	.	.
.	.	20ee\	.	.
.	.	20ee\	.	.
.	.	20eee\	.	.
.	.	20ee\JJ	.	.
.	.	20ee\LL	.	.
.	.	20ee\	.	.
.	.	20ee\	.	.
.	.	20eee\	.	.
.	.	20ee\JJ	.	.
.	.	20ee\LL	.	.
.	.	20ee\	.	.
.	.	20ee\	.	.
.	.	20eee\	.	.
.	.	20ee\JJ	.	.
=58	=58	=58	=58	=58
*	*	*Xped	*	*
2.r	.	20ee\LL	.	<
.	.	20ee\	.	.
.	.	20ee\	.	.
.	.	20eee\	.	.
.	.	20ee\JJ	.	.
.	.	20ffn\LL	.	.
.	.	20ff\	.	.
.	.	20ff\	.	.
.	.	20fffn\	.	.
.	.	20ff\JJ	.	.
.	.	20ff#X\LL	.	.
.	.	20ff#\	.	.
.	.	20ff#\	.	.
.	.	20fff#X\	.	.
.	.	20ff#\JJ	.	[
=59	=59	=59	=59	=59
*	*	*ped	*	*
!	!	!	!	!LO:DY:b=2:rj
8.e:L 8.Gn: 8.Cn:\	.	20ggn\LL	.	f
.	.	20gg\	.	.
.	.	20gg\	.	.
.	.	20gggny\	.	.
!LO:TX:b:t=marcatoil basso.	!	!	!	!
16fnJk 16d\	.	.	.	.
.	.	20gg\JJ	.	.
4gn 4e\	.	20gg\LL	.	.
.	.	20gg\	.	.
.	.	20gg\	.	.
.	.	20ggg\	.	.
.	.	20gg\JJ	.	.
4g 4e\	.	20gg\LL	.	.
.	.	20gg\	.	.
.	.	20gg\	.	.
.	.	20ggg\	.	.
.	.	20gg\JJ	.	.
!!LO:LB:g=original
=60	=60	=60	=60	=60
*^	*	*	*	*
8.gn>:L 8.e>:\	2.cn:\	.	20ggn/LL	.	.
.	.	.	20gg/	.	.
.	.	.	20gg/	.	.
.	.	.	20gggny/	.	.
16e>Jk 16c>\	.	.	.	.	.
.	.	.	20gg/JJ	.	.
8.a>L 8.fn>\	.	.	20gg/LL	.	.
.	.	.	20gg/	.	.
.	.	.	20gg/	.	.
.	.	.	20ggg/	.	.
16g>K 16e>\	.	.	.	.	.
.	.	.	20gg/JJ	.	.
8.f> 8.d>\	.	.	20gg/LL	.	.
.	.	.	20gg/	.	.
.	.	.	20gg/	.	.
.	.	.	20ggg/	.	.
16e>Jk 16c>\	.	.	.	.	.
*	*	*	*Xped	*	*
.	.	.	20gg/JJ	.	.
=61	=61	=61	=61	=61	=61
*	*	*	*ped	*	*
8.d/L	8.Gn\L	.	20ggn\LL	.	.
.	.	.	20gg\	.	.
.	.	.	20gg\	.	.
.	.	.	20gggny\	.	.
16d/Jk	16G\Jk	.	.	.	.
.	.	.	20gg\JJ	.	.
4.gn: 4.d: 4.B^:/	2G:\	.	20gg\LL	.	.
.	.	.	20gg\	.	.
.	.	.	20gg\	.	.
.	.	.	20ggg\	.	.
.	.	.	20gg\JJ	.	.
.	.	.	20gg\LL	.	.
.	.	.	20gg\	.	.
.	.	.	20gg\	.	.
8fn 8d/	.	.	.	.	.
.	.	.	20ggg\	.	.
*	*	*	*Xped	*	*
.	.	.	20gg\JJ	.	.
*v	*v	*	*	*	*
=62	=62	=62	=62	=62
(8.fnL 8.d 8.Gn'^\	.	20ggn\LL	.	.
.	.	20gg\	.	.
.	.	20gg\	.	.
.	.	20gggny\	.	.
16eJk 16cn\)	.	.	.	.
.	.	20gg\JJ	.	.
4e 4c\	.	20gg\LL	.	.
.	.	20gg\	.	.
.	.	20gg\	.	.
.	.	20ggg\	.	.
.	.	20gg\JJ	.	.
4r	.	20gg\LL	.	.
.	.	20gg\	.	.
.	.	20gg\	.	.
.	.	20ggg\	.	.
.	.	20gg\JJ	.	.
!!LO:LB:g=original
=63	=63	=63	=63	=63
!LO:SIC:v:s=8.eL 8.Gn 8.Cn^\	!	!	!	!
8.eL 8.G# 8.C#^\	.	20ggn\LL	.	.
.	.	20gg\	.	.
.	.	20gg\	.	.
.	.	20gggny\	.	.
16fnJk 16d\	.	.	.	.
.	.	20gg\JJ	.	.
4gn 4e^\	.	20gg\LL	.	.
.	.	20gg\	.	.
.	.	20gg\	.	.
.	.	20ggg\	.	.
.	.	20gg\JJ	.	.
4g 4e^\	.	20gg\LL	.	.
.	.	20gg\	.	.
.	.	20gg\	.	.
.	.	20ggg\	.	.
.	.	20gg\JJ	.	.
=64	=64	=64	=64	=64
*^	*	*	*	*
!	!	!	!LO:SIC:v:s=20ggn:/LL	!	!
8.ccn>:L 8.e>:\	2.cn^:\	.	20gg#:/LL	.	.
!	!	!	!LO:SIC:v:s=20gg/	!	!
.	.	.	20gg#/	.	.
!	!	!	!LO:SIC:v:s=20gg/	!	!
.	.	.	20gg#/	.	.
!	!	!	!LO:SIC:v:s=20gggn/	!	!
.	.	.	20ggg#/	.	.
16b>Jk 16g#>\	.	.	.	.	.
!	!	!	!LO:SIC:v:s=20gg/JJ	!	!
.	.	.	20gg#/JJ	.	.
!	!	!	!LO:SIC:v:s=20gg/LL	!	!
8.a>L 8.fn>\	.	.	20gg#/LL	.	.
!	!	!	!LO:SIC:v:s=20gg/	!	!
.	.	.	20gg#/	.	.
!	!	!	!LO:SIC:v:s=20gg/	!	!
.	.	.	20gg#/	.	.
!	!	!	!LO:SIC:v:s=20ggg/	!	!
.	.	.	20ggg#/	.	.
16g#>K 16e>\	.	.	.	.	.
!	!	!	!LO:SIC:v:s=20gg/JJ	!	!
.	.	.	20gg#/JJ	.	.
!	!	!	!LO:SIC:v:s=20gg/LL	!	!
8f> 8d>\	.	.	20gg#/LL	.	.
!	!	!	!LO:SIC:v:s=20gg/	!	!
.	.	.	20gg#/	.	.
!	!	!	!LO:SIC:v:s=20gg/	!	!
.	.	.	20gg#/	.	.
8e>J 8c>\	.	.	.	.	.
!	!	!	!LO:SIC:v:s=20ggg/	!	!
.	.	.	20ggg#/	.	.
!	!	!	!LO:SIC:v:s=20gg/JJ	!	!
.	.	.	20gg#/JJ	.	.
*v	*v	*	*	*	*
=65	=65	=65	=65	=65
*	*	*ped	*	*
8.d>L 8.Gn\	.	20ggn/LL	.	.
.	.	20gg/	.	.
.	.	20gg/	.	.
.	.	20gggny/	.	.
16d>Jk 16G\	.	.	.	.
.	.	20gg/JJ	.	.
4.gn>: 4.d>: 4.B: 4.G:\	.	20gg/LL	.	.
.	.	20gg/	.	.
.	.	20gg/	.	.
.	.	20ggg/	.	.
.	.	20gg/JJ	.	.
.	.	20gg/LL	.	.
.	.	20gg/	.	.
.	.	20gg/	.	.
8fn> 8d> 8G#X\	.	.	.	.
.	.	20ggg/	.	.
*	*	*Xped	*	*
.	.	20gg/JJ	.	.
!!LO:LB:g=original
=66	=66	=66	=66	=66
*	*	*8va	*	*
8.eL 8.cn 8.A\	.	20cccn\LL	.	.
.	.	20ccc\	.	.
.	.	20ccc\	.	.
.	.	20ccccny\	.	.
16eJk 16c 16A\	.	.	.	.
.	.	20ccc\JJ	.	.
!LO:S:s=2:note:problem:note-level slur	!	!	!	!
(4e (>4c 4A\	.	20ccc\LL	.	<
.	.	20ccc\	.	.
.	.	20ccc\	.	.
.	.	20cccc\	.	.
.	.	20ccc\JJ	.	.
!LO:S:s=2:note:problem:note-level slur	!	!	!	!
4d) 4A) 4Fn\	.	20ccc\LL	.	.
.	.	20ccc\	.	.
.	.	20ccc\	.	.
.	.	20cccc\	.	.
.	.	20ccc\JJ	.	.
=67	=67	=67	=67	=67
*	*	*ped	*	*
!	!	!	!	!LO:DY:b=2:rj
8EL 8EE'\	.	20eee\LL	.	f
.	.	20eee\	.	.
.	.	20eee\	.	.
16r	.	.	.	.
.	.	20eeee\	.	.
(16A#XJk (16F#\	.	.	.	.
.	.	20eee\JJ	.	.
8BL) 8G#\)	.	20eee\LL	.	.
.	.	20eee\	.	.
.	.	20eee\	.	.
16r	.	.	.	.
.	.	20eeee\	.	.
(16A#Jk (16F#\	.	.	.	.
.	.	20eee\JJ	.	.
8BL) 8G#\)	.	20eee\LL	.	.
.	.	20eee\	.	.
.	.	20eee\	.	.
16r	.	.	.	.
.	.	20eeee\	.	.
[16dJk [16B\	.	.	.	.
.	.	20eee\JJ	.	.
=68	=68	=68	=68	=68
8.d]L 8.B\]	.	20eee\LL	.	.
.	.	20eee\	.	.
*	*	*Xped	*	*
.	.	20eee\	.	.
.	.	20eeee\	.	.
16c#XJk 16An\	.	.	.	.
.	.	20eee\JJ	.	.
*	*	*ped	*	*
4c# 4A\	.	20eee\LL	.	.
.	.	20eee\	.	.
.	.	20eee\	.	.
.	.	20eeee\	.	.
.	.	20eee\JJ	.	.
4r	.	20eee\LL	.	.
.	.	20eee\	.	.
.	.	20eee\	.	.
.	.	20eeee\	.	.
.	.	20eee\JJ	.	.
*	*	*Xped	*	*
*	*	*X8va	*	*
!!LO:LB:g=original
=69	=69	=69	=69	=69
*	*	*ped	*	*
!	!	!	!	!LO:DY:b=2
8EL 8EE'\	.	20ee\LL	.	f
.	.	20ee\	.	.
.	.	20ee\	.	.
16r	.	.	.	.
.	.	20eee\	.	p
(16c#Jk (16A#X\	.	.	.	.
.	.	20ee\JJ	.	.
8dL) 8B\)	.	20ee\LL	.	.
.	.	20ee\	.	.
.	.	20ee\	.	.
16r	.	.	.	.
.	.	20eee\	.	.
(16c#Jk (16A#\	.	.	.	.
.	.	20ee\JJ	.	.
8dL) 8B\)	.	20ee\LL	.	.
.	.	20ee\	.	.
.	.	20ee\	.	.
16r	.	.	.	.
.	.	20eee\	.	.
[16f#Jk [16d\	.	.	.	.
.	.	20ee\JJ	.	.
=70	=70	=70	=70	=70
8.f#]L 8.d\]	.	20ee\LL	.	.
.	.	20ee\	.	.
.	.	20ee\	.	.
*	*	*Xped	*	*
.	.	20eee\	.	.
16eJk 16c#\	.	.	.	.
.	.	20ee\JJ	.	.
4e 4c#\	.	20ee\LL	.	.
.	.	20ee\	.	.
.	.	20ee\	.	.
.	.	20eee\	.	.
.	.	20ee\JJ	.	.
4r	.	20ee\LL	.	.
.	.	20ee\	.	.
.	.	20ee\	.	.
.	.	20eee\	.	.
.	.	20ee\JJ	.	.
=71	=71	=71	=71	=71
*	*	*tuplet	*	*
!	!	!LO:TX:t=P:problem:w źródle grupa 16 zamiast 32	!	!
!	!	!LO:TUP:a:num=20:problem:klamra łukowa	!	!LO:DY:rj
4e: 4A: 4C#:\	.	76%3#\LL	.	ff
*	*	*ped	*	*
.	.	76%3ee\	.	.
.	.	76%3aa\	.	.
.	.	76%3ccc#\	.	.
.	.	76%3eee\	.	.
.	.	76%3ddd\	.	.
.	.	76%3ccc#\	.	.
4e: 4A: 4C#:\	.	.	.	.
.	.	76%3bb\	.	.
.	.	76%3aa\	.	.
.	.	76%3gg#\	.	.
.	.	76%3ff#\	.	.
.	.	76%3ee\	.	.
*	*	*Xped	*	*
.	.	76%3dd\	.	.
4e: 4A: 4C#:\	.	.	.	.
.	.	76%3ee\	.	.
.	.	76%3dd\	.	.
.	.	76%3cc#\	.	.
.	.	76%3b\	.	.
.	.	76%3a\	.	.
.	.	76%3g#\JJ	.	.
!!LO:LB:g=original
=72	=72	=72	=72	=72
4d: 4B: 4F#: 4D:\	.	(>24ff#/LL	.	sfz
.	.	24ee/	.	.
.	.	24dd/	.	.
.	.	24cc#/	.	.
.	.	24b/	.	.
.	.	24a/	.	.
4r	.	32g#/L	.	.
.	.	32f#/	.	.
.	.	32e/	.	.
.	.	32d/	.	.
.	.	32c#</	.	.
.	.	32B</	.	.
.	.	32A</	.	.
.	.	32G#</	.	.
4r	.	32F#</	.	.
.	.	32E</	.	.
.	.	32D</	.	.
.	.	32C#</	.	.
.	.	32BB</	.	.
.	.	32AA</	.	.
.	.	32GG#</	.	.
.	.	32FF#</JJJ)	.	.
=73	=73	=73	=73	=73
8EE 8EEE/	.	8r	.	sf
*	*	*ped	*	*
16c#LL 16A 16E\	.	16cc#LL 16a 16e/	.	.
16c#JJ 16A 16E\	.	16cc#JJ 16a 16e/	.	.
8c#L 8A 8E\	.	8cc#L 8a 8e^/	.	.
8c# 8A 8E\	.	8cc#J 8a 8e^/	.	.
8c# 8A 8E\	.	8eeL 8a 8e^/	.	.
8c#J 8A 8E\	.	8cc#J 8a 8e^/	.	.
*	*	*Xped	*	*
=74	=74	=74	=74	=74
*	*	*ped	*	*
4E 4EE/	.	4b 4g# 4e/	.	.
*clefG2	*	*	*	*
4b: 4g#: 4e:/	.	4eee: 4bb: 4gg#: 4ee:\	.	sfz
4r;	.	4r;	.	.
=75	=75	=75	=75	=75
2.r	.	2.r	.	.
*clefF4	*	*Xped	*	*
!!LO:PB:g=original
=76	=76	=76	=76	=76
*	*	*^	*	*
*	*	*Xtuplet	*	*	*
*	*	*cue	*	*	*
!	!	!	!	!	!LO:DY:rj
8A: 8E: 8AA:\	.	(24c#^/LL	8c#\	.	pp
!	!	!LO:TX:b:t=les 2 pedales	!	!	!
.	.	24e/	.	.	.
.	.	24a/	.	.	.
8r	.	24cc#/	8r	.	.
.	.	24ee/	.	.	.
.	.	24aa/JJ	.	.	.
*	*	*Xcue	*	*	*
4r	.	8ccc#'\)	2ryy	.	.
.	.	8r	.	.	.
*clefG2	*	*ped	*	*	*
8ee: 8g#: 8e':\	.	8ddd 8bb'\	.	.	.
8r	.	8r	.	.	.
=77	=77	=77	=77	=77	=77
*	*	*cue	*	*	*
8ee: 8cc#: 8a:\	.	(28ccc#^/LL	4ccc#\	.	.
.	.	28eee/	.	.	.
.	.	28ccc#/	.	.	.
.	.	28aa/	.	.	.
8r	.	.	.	.	.
.	.	28ee/	.	.	.
.	.	28cc#/	.	.	.
.	.	28a/JJ	.	.	.
*	*	*Xcue	*	*	*
4r	.	8e'/)	2ryy	.	.
.	.	8r	.	.	.
.	.	(32qqee/LLL	.	.	.
.	.	32qqaa/	.	.	.
.	.	32qqccc#/JJJ	.	.	.
8cc#: 8a: 8e':/	.	8eee'\)	.	.	.
8r	.	8r	.	.	.
*clefF4	*	*	*	*	*
=78	=78	=78	=78	=78	=78
*	*	*ped	*	*	*
*	*	*cue	*	*	*
8g#: 8B: 8E:\	.	(28bb/LL	8bb\	.	.
.	.	28eee/	.	.	.
.	.	28bb/	.	.	.
.	.	28gg#/	.	.	.
8r	.	.	8r	.	.
.	.	28ee/	.	.	.
.	.	28b/	.	.	.
.	.	28g#/JJ	.	.	.
*	*	*Xcue	*	*	*
4r	.	8e/)	2ryy	.	.
.	.	8r	.	.	.
*clefG2	*	*	*	*	*
.	.	(32qqee/LLL	.	.	.
.	.	32qqgg#/	.	.	.
.	.	32qqbb/JJJ	.	.	.
8ee: 8b: 8g#: 8e':/	.	8eee\)	.	.	.
8r	.	8r	.	.	.
*	*	*v	*v	*	*
!!LO:LB:g=original
=79	=79	=79	=79	=79
*	*	*ped	*	*
.	.	(32qqaa/LLL	.	.
.	.	32qqccc#/	.	.
.	.	32qqeee/JJJ	.	.
8cc#: 8e: 8A:/	.	38aaa\LLL	.	.
.	.	38ggg#\	.	.
.	.	38fff#\	.	.
.	.	38eee\	.	.
.	.	38ddd\	.	.
8r	.	.	.	.
*	*	*Xped	*	*
.	.	38ccc#\	.	.
.	.	38bb\	.	.
.	.	38aa\	.	.
.	.	38gg#\	.	.
.	.	38ff#\	.	.
4r	.	.	.	.
.	.	38ee\	.	.
.	.	38dd\	.	.
.	.	38cc#\	.	.
.	.	38b\	.	.
.	.	38a\	.	.
.	.	38g#\	.	.
.	.	38f#\	.	.
.	.	38e\	.	.
.	.	38d\JJJ	.	.
*clefF4	*	*ped	*	*
8A 8AA'\	.	8c#/)	.	.
8r	.	8r	.	.
=80	=80	=80	=80	=80
*	*	*^	*	*
(32qqAA/LLL	.	.	.	.	.
32qqC#/	.	.	.	.	.
32qqE/JJJ	.	.	.	.	.
*	*	*cue	*	*	*
8A'\)	.	(36c#/LLL	8c#\	.	.
.	.	36e/	.	.	.
.	.	36a/	.	.	.
.	.	36cc#/	.	.	.
.	.	36ee/	.	.	.
8r	.	.	8r	.	.
.	.	36aa/	.	.	.
.	.	36ccc#/	.	.	.
*	*	*8va	*	*	*
.	.	36eee/	.	.	.
.	.	36aaa/JJJ	.	.	.
*	*	*Xcue	*	*	*
4r	.	8cccc#'\)	2ryy	.	.
*	*	*Xped	*	*	*
.	.	8r	.	.	.
*clefG2	*	*ped	*	*	*
8b: 8g#: 8e:/	.	8dddd: 8ggg#: 8eee':\	.	.	.
8r	.	8r	.	.	.
*	*	*Xped	*	*	*
!!LO:LB:g=original
=81	=81	=81	=81	=81	=81
*	*	*cue	*	*	*
8cc#: 8e: 8A:/	.	(40cccc#/LLL	8cccc#\	.	.
.	.	40eeee/	.	.	.
.	.	40cccc#/	.	.	.
.	.	40aaa/	.	.	.
.	.	40eee/	.	.	.
8r	.	40ccc#/	8r	.	.
.	.	40aa/	.	.	.
*	*	*X8va	*	*	*
.	.	40ee/	.	.	.
.	.	40cc#/	.	.	.
.	.	40a/JJJ	.	.	.
*	*	*Xcue	*	*	*
4r	.	8e'/)	2ryy	.	.
.	.	8r	.	.	.
*clefF4	*	*tuplet	*	*	*
!	!	!LO:TUP:a	!	!	!LO:DY:rj
8e: 8c#: 8A#X: 8F#:\	.	(24ff#\LL	.	.	f
.	.	24aa#X\	.	.	.
.	.	24ccc#\J	.	.	.
8r	.	8aaa#X^\J)	.	.	.
*	*	*v	*v	*	*
=82	=82	=82	=82	=82
!	!	!LO:N:vis=16	!	!
4B 4BB\	.	8r	.	.
*	*	*8va	*	*
*	*	*Xtuplet	*	*
.	.	24bb\LL	.	.
.	.	24ddd\	.	.
.	.	24fff#\JJ	.	.
8d 8B 8F#\	.	8bbb'\L	.	.
8r	.	8bb'\J	.	.
8B 8E\	.	8eeee'\	.	sf
*	*	*X8va	*	*
8r	.	8r	.	.
=83	=83	=83	=83	=83
!	!	!LO:TX:a:t=ten	!	!
2.r	.	2gg# 2dd\	.	pp
.	.	4r	.	.
!!LO:LB:g=original
=84|!	=84|!	=84|!	=84|!	=84|!
*	*	*^	*	*
!	!	!LO:TX:a:t=Più mosso	!	!	!
8AAA'/	.	8ccc#/L	24ccc#\LL	.	ppp
.	.	.	24aa\	.	.
.	.	.	24ee\JJ	.	.
!	!	!LO:TX:b:t=les 2. pedales doux et lie.	!	!	!
8r	.	8ddd/J	24ddd\LL	.	.
.	.	.	24aa\	.	.
.	.	.	24ee\JJ	.	.
4r	.	8eee/L	24eee\LL	.	.
.	.	.	24aa\	.	.
.	.	.	24ee\JJ	.	.
.	.	8eee/	24eee\LL	.	.
.	.	.	24aa\	.	.
.	.	.	24ee\JJ	.	.
*clefG2	*	*	*	*	*
8a 8e 8c#/	.	8eee/	24eee\LL	.	.
.	.	.	24aa\	.	.
.	.	.	24ee\JJ	.	.
8r	.	8eee/J	24eee\LL	.	.
.	.	.	24aa\	.	.
.	.	.	24ee\JJ	.	.
*clefF4	*	*	*	*	*
=85	=85	=85	=85	=85	=85
8AAA'/	.	8eee/L	24eee\LL	.	.
.	.	.	24aa\	.	.
.	.	.	24ee\JJ	.	.
8r	.	8ccc#/	24ccc#\LL	.	.
.	.	.	24aa\	.	.
.	.	.	24ee\JJ	.	.
4r	.	8fff#/	24fff#\LL	.	.
.	.	.	24aa\	.	.
.	.	.	24ee\JJ	.	.
.	.	8eee/	24eee\LL	.	.
.	.	.	24aa\	.	.
.	.	.	24ee\JJ	.	.
*clefG2	*	*	*	*	*
8a: 8e: 8A:/	.	8ddd/	24ddd\LL	.	.
.	.	.	24aa\	.	.
.	.	.	24ee\JJ	.	.
8r	.	8ccc#/J	24ccc#\LL	.	.
.	.	.	24aa\	.	.
.	.	.	24ee\JJ	.	.
*clefF4	*	*	*	*	*
=86	=86	=86	=86	=86	=86
8EEE^/	.	8bb/L	24bb\LL	.	.
.	.	.	24gg#\	.	.
.	.	.	24ee\JJ	.	.
8r	.	8bb/	24bb\LL	.	.
.	.	.	24gg#\	.	.
.	.	.	24ee\JJ	.	.
4r	.	8bb/	24bb\LL	.	.
.	.	.	24gg#\	.	.
.	.	.	24ee\JJ	.	.
.	.	8eee^/	24eee\LL	.	.
.	.	.	24gg#\	.	.
.	.	.	24ee\JJ	.	.
*clefG2	*	*	*	*	*
8b: 8g#: 8e:/	.	8eee^/	24eee\LL	.	.
.	.	.	24gg#\	.	.
.	.	.	24ee\JJ	.	.
8r	.	8ddd^/J	24ddd\LL	.	.
.	.	.	24gg#\	.	.
.	.	.	24ee\JJ	.	.
*clefF4	*	*	*	*	*
!!LO:LB:g=original
=87	=87	=87	=87	=87	=87
*	*	*	*ped	*	*
8AAA'/	.	(8ddd/L	24.ddd\LL	.	.
.	.	.	48gg#\K	.	.
.	.	.	24ee\JJ	.	.
8r	.	8ccc#/J	24ccc#\LL	.	.
.	.	.	24aa\	.	.
.	.	.	24ee\JJ	.	.
4r	.	8ccc#/)	24ccc#\LL	.	.
.	.	.	24aa\	.	.
.	.	.	24ee\JJ	.	.
.	.	24ccc#\LL	8ryy	.	.
.	.	24aa\	.	.	.
.	.	24ee\JJ	.	.	.
*clefG2	*	*	*	*	*
8a: 8e: 8c#:/	.	24ccc#\LL	4ryy	.	.
.	.	24aa\	.	.	.
.	.	24ee\JJ	.	.	.
8r	.	24ccc#\LL	.	.	.
.	.	24aa\	.	.	.
.	.	24ee\JJ	.	.	.
*clefF4	*	*	*	*	*
=88	=88	=88	=88	=88	=88
8AAA/	.	8ccc#/L	24ccc#\LL	.	.
.	.	.	24aa\	.	.
.	.	.	24ee\JJ	.	.
8r	.	8ddd/J	24ddd\LL	.	.
.	.	.	24aa\	.	.
.	.	.	24ee\JJ	.	.
4r	.	8eee/L	24eee\LL	.	.
.	.	.	24aa\	.	.
.	.	.	24ee\JJ	.	.
.	.	8eee/	24eee\LL	.	.
.	.	.	24aa\	.	.
.	.	.	24ee\JJ	.	.
*clefG2	*	*	*	*	*
8a 8e 8c#/	.	8eee/	24eee\LL	.	.
.	.	.	24aa\	.	.
.	.	.	24ee\JJ	.	.
8r	.	8eee/J	24eee\LL	.	.
.	.	.	24aa\	.	.
*	*	*	*Xped	*	*
.	.	.	24ee\JJ	.	.
*clefF4	*	*	*	*	*
=89	=89	=89	=89	=89	=89
8AAA/	.	(8aaa/L	24.aaa\LL	.	.
.	.	.	48ccc#\K	.	.
.	.	.	24aa\JJ	.	.
8r	.	8ggg#/	24ggg#\LL	.	.
.	.	.	24ccc#\	.	.
.	.	.	24aa\JJ	.	.
4r	.	8fff#/	24fff#\LL	.	.
.	.	.	24ccc#\	.	.
.	.	.	24aa\JJ	.	.
.	.	8eee/	24eee\LL	.	.
.	.	.	24ccc#\	.	.
.	.	.	24aa\JJ	.	.
*clefG2	*	*	*	*	*
8a 8e 8c#/	.	8ddd/	24ddd\LL	.	.
.	.	.	24ccc#\	.	.
.	.	.	24aa\JJ	.	.
8r	.	8ccc#/J)	24ccc#\LL	.	.
.	.	.	24aa\	.	.
.	.	.	24ee\JJ	.	.
*clefF4	*	*	*	*	*
!!LO:PB:g=original
=90	=90	=90	=90	=90	=90
*	*	*ped	*	*	*
!	!	!	!	!	!LO:HP:a
8EEE'/	.	(8ccc#/L	24ccc#\LL	.	<
.	.	.	24gg#\	.	.
.	.	.	24ee\JJ	.	.
8r	.	8bb/	24bb\LL	.	.
.	.	.	24gg#\	.	.
.	.	.	24ee\JJ	.	.
4r	.	8aa#X/	24aa#\LL	.	[
.	.	.	24gg#\	.	.
.	.	.	24ee\JJ	.	.
!	!	!	!	!	!LO:HP:a
.	.	8bb/	24bb\LL	.	>
.	.	.	24gg#\	.	.
.	.	.	24ee\JJ	.	.
*clefG2	*	*	*	*	*
8b: 8g#: 8e:/	.	8eee/	24eee\LL	.	.
.	.	.	24gg#\	.	.
.	.	.	24ee\JJ	.	.
8r	.	8gg#/J)	24gg#\LL	.	]
.	.	.	24ee\	.	.
.	.	.	24dd\JJ	.	.
*clefF4	*	*Xped	*	*	*
=91	=91	=91	=91	=91	=91
*	*	*ped	*	*	*
8AA/	.	(8gg#/L	24gg#\LL	.	.
.	.	.	24ee\	.	.
.	.	.	24dd\JJ	.	.
8r	.	8bb/J	24bb\LL	.	.
.	.	.	24ee\	.	.
.	.	.	24dd\JJ	.	.
4r	.	8aa/)	24aa\LL	.	.
.	.	.	24ee\	.	.
.	.	.	24dd\JJ	.	.
.	.	24aa\LL	8ryy	.	.
.	.	24ee\	.	.	.
.	.	24cc#\JJ	.	.	.
*clefG2	*	*	*	*	*
8cc#: 8a: 8e:/	.	24aa\LL	4ryy	.	.
.	.	24ee\	.	.	.
.	.	24cc#\JJ	.	.	.
8r	.	24aa\LL	.	.	.
.	.	24ee\	.	.	.
.	.	24cc#\JJ	.	.	.
*clefF4	*	*Xped	*	*	*
=92	=92	=92	=92	=92	=92
!	!	!	!	!	!LO:HP:a
8EEE/	.	8gg#/L	24gg#\LL	.	<
.	.	.	24ee\	.	.
.	.	.	24b\JJ	.	.
8r	.	8bb/	24bb\LL	.	.
.	.	.	24gg#\	.	.
.	.	.	24ee\JJ	.	.
4r	.	8bb/	24bb\LL	.	.
.	.	.	24gg#\	.	.
.	.	.	24ee\JJ	.	.
.	.	8bb/	24bb\LL	.	.
.	.	.	24gg#\	.	.
.	.	.	24ee\JJ	.	.
*clefG2	*	*	*	*	*
8b: 8g#: 8e:/	.	8bb/	24bb\LL	.	.
.	.	.	24gg#\	.	.
.	.	.	24ee\JJ	.	.
8r	.	8ddd/J	24ddd\LL	.	[
.	.	.	24gg#\	.	.
.	.	.	24ee\JJ	.	.
*clefF4	*	*	*	*	*
!!LO:LB:g=original
=93	=93	=93	=93	=93	=93
*	*	*	*ped	*	*
8AAA/	.	8ddd/L	24.ddd\LL	.	.
.	.	.	48aa\K	.	.
.	.	.	24ee\JJ	.	.
8r	.	8ccc#/	24ccc#\LL	.	.
.	.	.	24aa\	.	.
.	.	.	24ee\JJ	.	.
4r	.	8ccc#/	24ccc#\LL	.	.
.	.	.	24aa\	.	.
.	.	.	24ee\JJ	.	.
.	.	8bb#X/	24bb#\LL	.	.
.	.	.	24aa\	.	.
.	.	.	24ee\JJ	.	.
*clefG2	*	*	*	*	*
8a: 8e: 8c#:/	.	8ccc#/	24ccc#\LL	.	.
.	.	.	24aa\	.	.
.	.	.	24ee\JJ	.	.
8r	.	8eee/J	24eee\LL	.	.
.	.	.	24aa\	.	.
*	*	*	*Xped	*	*
.	.	.	24ee\JJ	.	.
*clefF4	*	*	*	*	*
=94	=94	=94	=94	=94	=94
*	*	*	*ped	*	*
8EE/	.	8eee/L	24eee\LL	.	.
.	.	.	24gg#\	.	.
.	.	.	24ee\JJ	.	.
8r	.	8ddd/	24ddd\LL	.	.
.	.	.	24gg#\	.	.
.	.	.	24ee\JJ	.	.
4r	.	8ddd/	24ddd\LL	.	.
.	.	.	24gg#\	.	.
.	.	.	24ee\JJ	.	<
.	.	8ccc#/	24ccc#\LL	.	.
.	.	.	24gg#\	.	.
.	.	.	24ee\JJ	.	.
*clefG2	*	*	*	*	*
8b: 8g#: 8e:/	.	8ddd/	24ddd\LL	.	.
.	.	.	24gg#\	.	.
.	.	.	24ee\JJ	.	.
8r	.	8fff#/J	24fff#\LL	.	.
.	.	.	24gg#\	.	[
*	*	*	*Xped	*	*
.	.	.	24ee\JJ	.	.
*clefF4	*	*	*	*	*
=95	=95	=95	=95	=95	=95
*	*	*	*ped	*	*
8AAA/	.	8fff#/L	24fff#\LL	.	.
.	.	.	24aa\	.	.
.	.	.	24ee\JJ	.	>
8r	.	8eee/	24eee\LL	.	.
.	.	.	24aa\	.	.
.	.	.	24ee\JJ	.	.
4r	.	8eee/	24eee\LL	.	.
.	.	.	24aa\	.	.
.	.	.	24ee\JJ	.	]
.	.	8eee/	24eee\LL	.	<
.	.	.	24aa\	.	.
.	.	.	24ee\JJ	.	.
*clefG2	*	*	*	*	*
8a: 8e: 8A:/	.	8ccc#/	24ccc#\LL	.	.
.	.	.	24aa\	.	.
.	.	.	24ee\JJ	.	.
8r	.	8eee/J	24eee\LL	.	.
.	.	.	24aa\	.	[
*	*	*	*Xped	*	*
.	.	.	24ee\JJ	.	.
*clefF4	*	*	*	*	*
!!LO:LB:g=original
=96	=96	=96	=96	=96	=96
*	*	*	*	*	*^
*	*	*ped	*	*	*	*
!	!	!LO:TX:b:Bi:t=poco poco cres-cen-do:problem:dynamics with extention lines	!	!	!LO:HP:t=poco poco cres-cen-do	!
4C# 4CC#/	.	8bb/L	24bb\LL	.	<	.
.	.	.	24aa\	.	.	.
.	.	.	24ee\JJ	.	.	.
.	.	8eee/J	24eee\LL	.	.	.
.	.	.	24aa\	.	.	.
.	.	.	24ee\JJ	.	.	.
4c#: 4A: 4E: 4C#:\	.	8aaa/L	24.aaa\LL	.	.	.
.	.	.	48ccc#\K	.	.	.
.	.	.	24aa\JJ	.	.	.
.	.	8ggg#/	24ggg#\LL	.	.	.
.	.	.	24ccc#\	.	.	.
.	.	.	24aa\JJ	.	.	.
4r	.	8fff#/	24fff#\LL	.	.	.
.	.	.	24ccc#\	.	.	.
.	.	.	24aa\JJ	.	.	.
.	.	8eee/J	24eee\LL	.	.	.
.	.	.	24ccc#\	.	.	.
*	*	*Xped	*	*	*	*
.	.	.	24aa\JJ	.	.	.
*	*	*v	*v	*	*	*
=97	=97	=97	=97	=97	=97
*	*	*^	*	*	*
*	*	*8va	*	*	*	*
*	*	*ped	*	*	*	*
4D 4DD/	.	8eee#X/L	24eee#\LL	.	.	.
.	.	.	24ddd\	.	.	.
.	.	.	24bb\JJ	.	.	.
.	.	8fff#/J	24fff#\LL	.	.	.
.	.	.	24ddd\	.	.	.
.	.	.	24bb\JJ	.	.	.
4d 4B 4F# 4D\	.	8bbb/L	24.bbb\LL	.	.	.
.	.	.	48ddd\K	.	.	.
.	.	.	24bb\JJ	.	.	.
.	.	8aaa/	24aaa\LL	.	.	<
.	.	.	24ddd\	.	.	.
.	.	.	24bb\JJ	.	.	.
4r	.	8ggg#/	24ggg#\LL	.	.	.
.	.	.	24ddd\	.	.	.
.	.	.	24bb\JJ	.	.	.
.	.	8fff#/J	24fff#\LL	.	.	.
.	.	.	24ddd\	.	.	.
*	*	*Xped	*	*	*	*
.	.	.	24bb\JJ	.	.	[
=98	=98	=98	=98	=98	=98	=98
*	*	*ped	*	*	*	*
4E#X 4EE#X/	.	8fff##X/L	24fff##\LL	.	.	.
.	.	.	24eee#X\	.	.	>
.	.	.	24ccc#\JJ	.	.	.
.	.	8ggg#/J	24ggg#\LL	.	.	.
.	.	.	24eee#\	.	.	.
.	.	.	24ccc#\JJ	.	.	.
4e#X: 4c#: 4B: 4E#:\	.	8cccc#/L	24.cccc#\LL	.	.	.
.	.	.	48eee#\K	.	.	.
.	.	.	24ccc#\JJ	.	.	]
.	.	8bbb/	24bbb\LL	.	.	<
.	.	.	24eee#\	.	.	.
.	.	.	24ccc#\JJ	.	.	.
4r	.	8aaa/	24aaa\LL	.	.	.
.	.	.	24eee#\	.	.	.
.	.	.	24ccc#\JJ	.	.	.
.	.	8ggg#/J	24ggg#\LL	.	.	.
.	.	.	24eee#\	.	.	.
*	*	*Xped	*	*	*	*
.	.	.	24ccc#\JJ	.	.	[
!!LO:LB:g=original
=99	=99	=99	=99	=99	=99	=99
*	*	*ped	*	*	*	*
4F# 4FF#/	.	8ggg#/L	24ggg#\LL	.	.	.
.	.	.	24fff#\	.	.	.
.	.	.	24ddd\JJ	.	.	.
.	.	8aaa/J	24aaa\LL	.	.	.
.	.	.	24fff#\	.	.	.
.	.	.	24ddd\JJ	.	.	.
4f#: 4d: 4A: 4F#:\	.	8dddd/L	24dddd\LL	.	.	.
.	.	.	24fff#\	.	.	.
.	.	.	24ddd\JJ	.	[	.
.	.	8cccc#/	24cccc#\LL	.	.	.
.	.	.	24fff#\	.	.	.
.	.	.	24ddd\JJ	.	.	.
4r	.	8bbb/	24bbb\LL	.	.	.
.	.	.	24fff#\	.	.	.
.	.	.	24ddd\JJ	.	.	.
.	.	8aaa/J	24aaa\LL	.	.	.
.	.	.	24fff#\	.	.	.
*	*	*Xped	*	*	*	*
.	.	.	24ddd\JJ	.	.	.
*	*	*	*	*	*v	*v
=100	=100	=100	=100	=100	=100
*	*	*ped	*	*	*
4G# 4GG#/	.	8aaa#X/L	24aaa#\LL	.	.
.	.	.	24eee\	.	.
.	.	.	24ddd\JJ	.	.
.	.	8bbb^/	24bbb\LL	.	.
.	.	.	24eee\	.	.
.	.	.	24ddd\JJ	.	f
4g#: 4e: 4d: 4G#':\	.	8eeee^/	24eeee\LL	.	.
.	.	.	24ggg#\	.	<
.	.	.	24eee\JJ	.	.
.	.	8dddd^/	24dddd\LL	.	.
.	.	.	24fff#\	.	.
.	.	.	24ddd\JJ	.	.
!	!	!LO:TX:b:t=conforza.	!	!	!
4r	.	8cccc#^/	24cccc#\LL	.	.
.	.	.	24eee\	.	.
.	.	.	24ccc#\JJ	.	.
.	.	8bbb^/J	24bbb\LL	.	.
.	.	.	24ddd\	.	.
.	.	.	24bb\JJ	.	.
=101	=101	=101	=101	=101	=101
2.r	.	8aaan^/L	24aaan\LL	.	.
.	.	.	24ccc#\	.	.
.	.	.	24aa\JJ	.	.
.	.	8ggg#^/	24ggg#\LL	.	.
.	.	.	24bb\	.	.
.	.	.	24gg#\JJ	.	.
.	.	8fff#^/	24fff#\LL	.	.
.	.	.	24aa\	.	.
.	.	.	24ff#\JJ	.	.
.	.	8eee^/J	24eee\LL	.	.
.	.	.	24gg#\	.	.
.	.	.	24ee\JJ	.	.
*	*	*X8va	*	*	*
.	.	8ddd^/L	24ddd\LL	.	.
.	.	.	24dd\	.	.
.	.	.	24b\JJ	.	.
.	.	8bb^/J	24bb\LL	.	.
.	.	.	24dd\	.	.
.	.	.	24b\JJ	.	[
*	*	*v	*v	*	*
!!LO:PB:g=original
=102||	=102||	=102||	=102||	=102||
*	*	*ped	*	*
!	!	!LO:TX:b:t=tres largement.	!	!
!	!	!LO:TX:a:t=Tempo I°.	!	!LO:DY:rj
8AA 8AAA'/	.	8.ccc#L 8.aa 8.cc#^\	.	ff
(32E\LLL	.	.	.	.
32A\	.	.	.	.
32c#\	.	16dddJk 16bb 16dd\	.	.
32e\JJJ	.	.	.	.
32c#\LLL	.	4eee 4ccc# 4ee^\	.	.
32e\	.	.	.	.
32c#\	.	.	.	.
32e\JJJ	.	.	.	.
32c#\LLL	.	.	.	.
32e\	.	.	.	.
32c#\	.	.	.	.
32A\JJJ	.	.	.	.
8E'\)	.	4eee 4ccc# 4ee^\	.	.
8r	.	.	.	.
=103	=103	=103	=103	=103
8AA 8AAA'/	.	8.eeeL 8.ccc# 8.ee\	.	.
(32E\LLL	.	.	.	.
32A\	.	.	.	.
32c#\	.	16ccc#Jk 16aa 16cc#\	.	.
32e\JJJ	.	.	.	.
32c#\LLL	.	8.fff#:L 8.aa: 8.ff#^:\	.	.
32e\	.	.	.	.
32c#\	.	.	.	.
32e\JJJ	.	.	.	.
32c#\LLL	.	.	.	.
32e\	.	.	.	.
32c#\	.	(16eeeK 16aa 16ee\	.	.
32A\JJJ	.	.	.	.
8E'\)	.	8.ddd 8.aa 8.dd\)	.	.
8r	.	.	.	.
*	*	*Xped	*	*
.	.	(16ccc#Jk 16aa 16cc#\	.	.
=104	=104	=104	=104	=104
*8ba	*	*ped	*	*
8EEE'/	.	8bbL 8gg# 8b^\)	.	.
*X8ba	*	*	*	*
(32E\LLL	.	16r	.	.
32G#\	.	.	.	.
32B\	.	(16bbJk 16gg#\	.	.
32e\JJJ	.	.	.	.
32B\LLL	.	4.eee 4.gg# 4.ee^\)	.	.
32e\	.	.	.	.
32B\	.	.	.	.
32e\JJJ	.	.	.	.
32B\LLL	.	.	.	.
32e\	.	.	.	.
32B\	.	.	.	.
32G#\JJJ	.	.	.	.
!	!	!	!	!LO:DY:b=2
8E'\)	.	.	.	sf
8r	.	8ddd 8bb 8dd\	.	.
*	*	*Xped	*	*
!!LO:LB:g=original
=105	=105	=105	=105	=105
*	*	*ped	*	*
8AA 8AAA/	.	8.dddL 8.bb 8.dd^\	.	.
(32E\LLL	.	.	.	.
32A\	.	.	.	.
32c#\	.	16ccc#Jk 16aa 16cc#\	.	.
32e\JJJ	.	.	.	.
32c#\LLL	.	4ccc# 4aa 4cc#\	.	.
32e\	.	.	.	.
32c#\	.	.	.	.
32e\JJJ	.	.	.	.
32c#\LLL	.	.	.	.
32e\	.	.	.	.
32c#\	.	.	.	.
32A\JJJ	.	.	.	.
!	!	!	!	!LO:DY:b=2
8E'\)	.	4r	.	sf
8r	.	.	.	.
=106	=106	=106	=106	=106
8AA 8AAA/	.	8.ccc#L 8.aa 8.cc#^\	.	<
(32E\LLL	.	.	.	.
32A\	.	.	.	.
32c#\	.	16dddJk 16bb 16dd\	.	.
32e\JJJ	.	.	.	.
32c#\LLL	.	4eee 4ccc# 4ee\	.	.
32e\	.	.	.	.
32c#\	.	.	.	.
32e\JJJ	.	.	.	.
32c#\LLL	.	.	.	.
32e\	.	.	.	.
32c#\	.	.	.	.
32A\JJJ	.	.	.	.
8E'\)	.	4eee 4ccc# 4ee^\	.	.
8r	.	.	.	[
=107	=107	=107	=107	=107
8AA 8AAA/	.	8aaaL 8ccc# 8aa^\	.	>
(32E\LLL	.	8ggg# 8bb 8gg#^\	.	.
32A\	.	.	.	.
32c#\	.	.	.	.
32e\JJJ	.	.	.	.
32c#\LLL	.	8fff# 8aa 8ff#^\	.	.
32e\	.	.	.	.
32c#\	.	.	.	.
32e\JJJ	.	.	.	.
32c#\LLL	.	8eee 8gg# 8ee^\	.	.
32e\	.	.	.	.
32c#\	.	.	.	.
32A\JJJ	.	.	.	.
8E'\)	.	8ddd 8ff# 8dd^\	.	.
8r	.	8ccc#J 8ee 8cc#^\	.	]
*	*	*Xped	*	*
!!LO:LB:g=original
=108	=108	=108	=108	=108
*	*	*ped	*	*
8E 8EE/	.	8ccc#L 8cc#^\	.	.
(32E\LLL	.	8bb 8b^\	.	.
32G#\	.	.	.	.
32B\	.	.	.	.
32e\JJJ	.	.	.	.
32B\LLL	.	8aa#X 8a#X^\	.	.
32e\	.	.	.	.
32B\	.	.	.	.
32e\JJJ	.	.	.	.
32B\LLL	.	8bb 8b^\	.	.
32e\	.	.	.	.
32B\	.	.	.	.
32G#\JJJ	.	.	.	.
!	!	!	!	!LO:DY:b=2
8E'\)	.	8eee 8gg# 8ee^\	.	sf
*	*	*Xped	*	*
8r	.	8gg#J 8ee 8dd^\	.	.
=109	=109	=109	=109	=109
*	*	*ped	*	*
8AA 8AAA/	.	8.bbL 8.ee 8.dd^\	.	.
32E\LLL	.	.	.	.
(32A\	.	.	.	.
32c#\	.	16aaJk 16ee 16cc#\	.	.
32e\JJJ	.	.	.	.
*Xtuplet	*	*	*	*
24c#\LL	.	4aa 4ee 4cc#^\	.	.
24e\	.	.	.	.
24c#\	.	.	.	.
24A\	.	.	.	.
24E\	.	.	.	.
24C#\JJ	.	.	.	.
!	!	!	!	!LO:DY:b=2
8AA/)	.	8r	.	sf
*	*	*Xped	*	*
8r	.	8cc# 8c#^>/	.	.
=110	=110	=110	=110	=110
*	*	*ped	*	*
8EL 8EE\	.	8cc#L 8c#^>/	.	.
16r	.	16r	.	.
16G#Jk 16E\	.	16bJk 16g# 16e 16B/	.	sf
4G# 4E\	.	8b 8g# 8e 8B/	.	sf
*	*	*tuplet	*	*
!	!	!LO:TUP:a	!	!
.	.	(80B\LLLL	.	<
.	.	80e\	.	.
.	.	80g#\	.	.
.	.	80b\	.	.
.	.	80ee\	.	.
.	.	80gg#\	.	.
*	*	*8va	*	*
.	.	80bb\	.	.
.	.	80eee\	.	.
.	.	80ggg#\	.	.
.	.	80bbb\JJJJ	.	.
8G# 8E\	.	8dddd'\L)	.	[
*	*	*X8va	*	*
8r	.	16r	.	.
.	.	16ddJk 16b 16d^\	.	.
!!LO:LB:g=original
=111	=111	=111	=111	=111
*	*	*ped	*	*
8AAL 8AAA'\	.	8ddL 8b 8d^/	.	.
16r	.	16r	.	.
16eJk 16A 16E\	.	16cc#Jk 16a 16c#/	.	.
!	!	!LO:N:vis=16	!	!
4e 4A 4E\	.	8cc# 8a 8c#^/	.	.
!	!	!LO:TUP:a	!	!
.	.	(72c#\LLLL	.	<
.	.	72e\	.	.
.	.	72a\	.	.
.	.	72cc#\	.	.
.	.	72ee\	.	.
.	.	72aa\	.	.
.	.	72ccc#\	.	.
.	.	72eee\	.	.
*	*	*8va	*	*
.	.	72aaa\JJJJ	.	[
8e 8A 8E\	.	8cccc#\L)	.	.
*	*	*X8va	*	*
8r	.	16r	.	.
*	*	*Xped	*	*
.	.	16eeJk 16cc#^\	.	.
=112	=112	=112	=112	=112
*	*	*ped	*	*
8EL 8EE\	.	8eeL 8cc# 8e^/	.	.
16r	.	16r	.	.
16g#:Jk 16B: 16G#: 16E:\	.	16ddJk 16b 16d/	.	.
!	!	!LO:N:vis=16	!	!
4g# 4B 4G# 4E\	.	8dd 8b 8d^/	.	.
.	.	(64d\LLLL	.	.
.	.	64g#\	.	.
.	.	64b\	.	.
!	!	!LO:TX:a:t=9	!	!
.	.	64dd\	.	.
.	.	64gg#\	.	.
*	*	*8va	*	*
.	.	64ddd\	.	.
.	.	64ggg#\	.	.
.	.	64bbb\JJJJ	.	.
8g#: 8B: 8G#: 8E:\	.	8dddd\L)	.	.
*	*	*X8va	*	*
8r	.	16r	.	.
.	.	16ff#Jk 16dd^\	.	.
*	*	*Xped	*	*
=113	=113	=113	=113	=113
*	*	*ped	*	*
8AAL 8AAA\	.	8ff#L 8dd 8f#^\	.	.
16r	.	16r	.	.
16a:Jk 16c#: 16A: 16E:\	.	16eeJk 16cc# 16e\	.	.
!	!	!LO:N:vis=16	!	!
4a: 4c#: 4A: 4E:\	.	8ee 8cc# 8e^\	.	.
*	*	*Xtuplet	*	*
.	.	(72e\LLLL	.	<
.	.	72a\	.	.
.	.	72cc#\	.	.
.	.	72ee\	.	.
.	.	72aa\	.	.
.	.	72ccc#\	.	.
*	*	*8va	*	*
.	.	72eee\	.	.
.	.	72aaa\	.	.
.	.	72cccc#\JJJJ	.	[
8a: 8c#: 8A: 8E:\	.	8eeee'\)	.	sf
*	*	*X8va	*	*
8r	.	8r	.	.
*	*	*Xped	*	*
!!LO:LB:g=original
=114	=114	=114	=114	=114
*	*	*ped	*	*
8AA 8AAA/	.	8ccc#L 8cc#^\	.	.
(32E\LLL	.	8eee 8ee^\	.	.
32A\	.	.	.	.
32c#\	.	.	.	.
32e\JJJ	.	.	.	.
32c#\LLL	.	8aaa 8aa^\	.	.
32e\	.	.	.	.
32c#\	.	.	.	.
32e\JJJ	.	.	.	.
32c#\LLL	.	8ggg# 8gg#^\	.	.
32e\	.	.	.	.
32c#\	.	.	.	.
32A\JJJ	.	.	.	.
!	!	!	!	!LO:DY:b=2
8E\)	.	8fff# 8ff#^\	.	sf
*	*	*Xped	*	*
8r	.	8eeeJ 8ee^\	.	.
=115	=115	=115	=115	=115
*	*	*ped	*	*
8.DL 8.DD\	.	8.eee#XL 8.bb 8.ee#X\	.	.
16dJk 16B 16F# 16D\	.	16fff#Jk 16bb 16ff#\	.	sf
!	!	!LO:TX:a:t=ten.	!	!
2d 2B 2F# 2D\	.	2fff# 2bb 2ff#\	.	sf
*	*	*Xped	*	*
=116	=116	=116	=116	=116
!	!	!LO:TX:b:t=les 2 pedales	!	!
8.EL 8.EE\	.	8.bL 8.g#/	.	p
16eJk 16d\	.	(16bJk 16g#/	.	.
4.e 4.d\	.	4ee 4g#\)	.	.
.	.	(32qqe/LLL	.	.
.	.	32qqg#/	.	.
.	.	32qqb/	.	.
.	.	32qqee/	.	.
.	.	32qqgg#/	.	.
.	.	32qqbb/JJJ	.	.
.	.	8eee'\)	.	.
*clefG2	*	*	*	*
8r	.	8r	.	.
=117	=117	=117	=117	=117
8.eeL 8.dd\	.	8.bbL 8.gg#\	.	pp
16eeJk 16dd\	.	(16bbJk 16gg#\	.	.
4.ee 4.dd\	.	4eee 4gg#\)	.	.
.	.	(32qqee/LLL	.	.
.	.	32qqgg#/	.	.
.	.	32qqbb/	.	.
.	.	32qqeee/	.	.
.	.	32qqggg#/	.	.
.	.	32qqbbb/JJJ	.	.
.	.	8eeee'\)	.	.
8r	.	8r	.	.
!!LO:PB:g=original
=118	=118	=118	=118	=118
*	*	*8va	*	*
8.eeL 8.dd\	.	8.bbbL 8.ggg#\	.	ppp
16eeJk 16dd\	.	(16bbbJk 16ggg#\	.	.
4ee 4dd\	.	4eeee 4ggg#\)	.	.
*	*	*X8va	*	*
4r;	.	4r;	.	.
*clefF4	*	*Xped	*	*
=119	=119	=119	=119	=119
*	*	*cue	*	*
!	!	!LO:TX:a:t=Tempo 1°. con gran delicatezza.	!	!
8AA\	.	(40AA</LLL	.	ppp
.	.	40C#</	.	.
.	.	40E</	.	.
.	.	40A</JJJ	.	.
.	.	40c#/LLL	.	.
!	!	!LO:TX:b:t=les deux pedales	!	!
8r	.	40e/	.	.
.	.	40a/	.	.
.	.	40cc#/	.	.
.	.	40ee/	.	.
.	.	40aa/JJJ	.	.
*	*	*Xcue	*	*
4r	.	8ccc#'\)	.	.
*	*	*Xped	*	*
.	.	8r	.	.
*clefG2	*	*	*	*
(32qqe/LLL	.	.	.	.
32qqg#/	.	.	.	.
32qqb/JJJ	.	.	.	.
*	*	*ped	*	*
8ee'\)	.	8ddd 8bbn'\	.	.
8r	.	8r	.	.
*	*	*Xped	*	*
=120	=120	=120	=120	=120
*	*	*^	*	*
*	*	*ped	*	*	*
*	*	*cue	*	*	*
8ee 8cc# 8a'\	.	(44ccc#/LLL	8ccc#\	.	.
.	.	44eee/	.	.	.
.	.	44ccc#/	.	.	.
.	.	44aa/	.	.	.
.	.	44ee/	.	.	.
.	.	44cc#/	.	.	.
*clefF4	*	*	*	*	*
8r	.	.	8r	.	.
.	.	44a/	.	.	.
.	.	44e/JJJ	.	.	.
.	.	44e</LLL	.	.	.
.	.	44c#</	.	.	.
.	.	44A</JJJ	.	.	.
*	*	*Xcue	*	*	*
!	!	!	!	!	!LO:DY:b=2
4rGGG	.	8E<'\)	2ryy	.	sf
.	.	8rC<	.	.	.
*clefG2	*	*	*	*	*
.	.	(32qqe</LLL	.	.	.
.	.	32qqa</	.	.	.
.	.	32qqcc#</JJJ	.	.	.
.	.	32qqaa/LLL	.	.	.
.	.	32qqccc#/JJJ	.	.	.
8ee'\	.	8eee'\)	.	.	.
*	*	*Xped	*	*	*
8r	.	8r	.	.	.
!!LO:LB:g=original
=121	=121	=121	=121	=121	=121
*	*	*ped	*	*	*
*	*	*cue	*	*	*
8ee 8b 8g# 8e/	.	(40bb/LLL	8bb\	.	.
.	.	40eee/	.	.	.
.	.	40bb/	.	.	.
.	.	40gg#/	.	.	.
.	.	40ee/	.	.	.
*clefF4	*	*	*	*	*
8r	.	40b/	8r	.	.
.	.	40g#/JJJ	.	.	.
.	.	40e</LLL	.	.	.
.	.	40B</	.	.	.
.	.	40G#</JJJ	.	.	.
*	*	*Xcue	*	*	*
!	!	!	!	!	!LO:DY:b=2
8ryy	.	8E<'\)	2ryy	.	sf
*clefG2	*	*	*	*	*
8ryy	.	8r	.	.	.
.	.	(32qqe</LLL	.	.	.
.	.	32qqg#</	.	.	.
.	.	32qqb</JJJ	.	.	.
.	.	32qqgg#/LLL	.	.	.
.	.	32qqbb/JJJ	.	.	.
8ee'\	.	8eee'\)	.	.	.
*	*	*Xped	*	*	*
8r	.	8r	.	.	.
*	*	*v	*v	*	*
=122	=122	=122	=122	=122
.	.	(32qqaa/LLL	.	.
.	.	32qqccc#/	.	.
.	.	32qqeee/JJJ	.	.
8cc#: 8e: 8A:/	.	38aaa^\LLL	.	.
.	.	38ggg#\	.	.
.	.	38fff#\	.	.
.	.	38eee\	.	.
.	.	38ddd\	.	.
8r	.	.	.	.
.	.	38ccc#\	.	.
.	.	38bb\	.	.
.	.	38aa\	.	.
.	.	38gg#\	.	.
.	.	38ff#\	.	.
4r	.	.	.	.
.	.	38ee\	.	.
.	.	38dd\	.	.
.	.	38cc#\	.	.
.	.	38b\	.	.
.	.	38a\	.	.
.	.	38g#\	.	.
.	.	38f#\	.	.
.	.	38e\	.	.
.	.	38d\JJJ	.	.
*clefF4	*	*ped	*	*
8A 8AA'\	.	8c#/)	.	.
8r	.	8r	.	.
=123	=123	=123	=123	=123
(8AAA'/	.	8r	.	.
*rscale:2	*	*rscale:2	*	*
*cue	*	*cue	*	*
72AA/LLLL	.	(72c#/LLLL	.	.
72C#/	.	72e/	.	.
72E/	.	72a/	.	.
72A/	.	72cc#/	.	.
72c#/	.	72ee/	.	.
*clefG2	*	*	*	*
72e/	.	72aa/	.	.
72a/	.	72ccc#/	.	.
*	*	*8va	*	*
72cc#/	.	72eee/	.	.
72ee/JJJJ	.	72aaa/JJJJ	.	.
*rscale:1	*	*rscale:1	*	*
*Xcue	*	*Xcue	*	*
*	*	*Xped	*	*
8aa'\)	.	8cccc#'\)	.	.
*	*	*ped	*	*
8r	.	8r	.	.
8ddd: 8bb: 8ee:\	.	8dddd: 8ggg#: 8eee:\	.	.
*	*	*Xped	*	*
8r	.	8r	.	.
!!LO:LB:g=original
=124	=124	=124	=124	=124
*	*	*^	*	*
*	*	*ped	*	*	*
*	*	*cue	*	*	*
8ccc#: 8aa: 8ee:\	.	(40cccc#/LLL	4cccc#\	.	.
.	.	40eeee/	.	.	.
.	.	40cccc#/	.	.	.
.	.	40aaa/	.	.	.
.	.	40eee/	.	.	.
8r	.	40ccc#/	.	.	.
.	.	40aa/	.	.	.
*	*	*X8va	*	*	*
.	.	40ee/	.	.	.
.	.	40cc#/	.	.	.
.	.	40a/JJJ	.	.	.
*	*	*Xcue	*	*	*
*	*	*Xped	*	*	*
4r	.	8e/)	2ryy	.	.
.	.	8r	.	.	.
*	*	*ped	*	*	*
*	*	*8va	*	*	*
(4cc# 4b 4g# (4c#^/	.	4eee#Xt\	.	.	sf
.	.	32qqddd#X/LLL	.	.	.
.	.	32qqeee#/JJJ	.	.	.
*	*	*Xped	*	*	*
=125	=125	=125	=125	=125	=125
*	*	*ped	*	*	*
*	*	*cue	*	*	*
8cc#) 8a 8f#/)	.	(32aaa/LLL	8fff#\	.	.
.	.	32cccc#/	.	.	.
.	.	32ffff#/	.	.	.
.	.	32cccc#/	.	.	.
8r	.	32aaa/	8r	.	.
.	.	32fff#/	.	.	.
.	.	32ccc#/	.	.	.
.	.	32aa/JJJ	.	.	.
*	*	*Xcue	*	*	*
4r	.	8ff#/)	2ryy	.	.
*	*	*Xped	*	*	*
.	.	8r	.	.	.
.	.	32qqfff#/LLL	.	.	.
.	.	32qqggg#/	.	.	.
.	.	32qqaaa/JJJ	.	.	.
*	*	*ped	*	*	*
(4dd 4b (4d/	.	4ggg#t\	.	.	sf
.	.	32qqfff#/LLL	.	.	.
.	.	32qqggg#/JJJ	.	.	.
*	*	*Xped	*	*	*
=126	=126	=126	=126	=126	=126
*	*	*ped	*	*	*
*	*	*cue	*	*	*
8cc#) 8a/)	.	(32aaa/LLL	8aaa\	.	.
.	.	32cccc#/	.	.	.
.	.	32eeee/	.	.	.
.	.	32cccc#/	.	.	.
8r	.	32aaa/	8r	.	.
.	.	32eee/	.	.	.
.	.	32ccc#/	.	.	.
.	.	32aa/JJJ	.	.	.
*	*	*Xcue	*	*	*
4r	.	8ee/)	2ryy	.	.
*	*	*Xped	*	*	*
.	.	8r	.	.	.
*	*	*ped	*	*	*
!LO:S:s=2:note:problem:note-level slur	!	!	!	!	!
!LO:S:s=3:note:problem:note-level slur	!	!	!	!	!
(>4cc# (>4b (<4g# (<4c#/	.	4eee#Xt\	.	.	sf
.	.	32qqddd/LLL	.	.	.
.	.	32qqeee#/JJJ	.	.	.
*	*	*Xped	*	*	*
!!LO:LB:g=original
=127	=127	=127	=127	=127	=127
*	*	*ped	*	*	*
*	*	*cue	*	*	*
!LO:S:s=2:note:problem:note-level slur	!	!	!	!	!
8cc#) 8a) 8f#/)	.	(44aaa/LLL	8fff#\	.	.
.	.	44cccc#/	.	.	.
.	.	44ffff#/	.	.	.
.	.	44cccc#/	.	.	.
.	.	44aaa/	.	.	.
.	.	44fff#/	.	.	.
8r	.	.	8ryy	.	.
.	.	44ccc#/	.	.	.
.	.	44aa/	.	.	.
.	.	44ff#/	.	.	.
.	.	44cc#/	.	.	.
.	.	44a/JJJ	.	.	.
*	*	*Xcue	*	*	*
4r	.	8ff#'/)	2ryy	.	.
*	*	*X8va	*	*	*
*	*	*Xped	*	*	*
.	.	8r	.	.	.
*clefF4	*	*ped	*	*	*
4d 4B 4E\	.	4gg#t\	.	.	sf
.	.	32qqff#/LLL	.	.	.
.	.	32qqgg#/JJJ	.	.	.
*	*	*Xped	*	*	*
=128	=128	=128	=128	=128	=128
*	*	*ped	*	*	*
*	*	*cue	*	*	*
8A 8AA\	.	(36e/LLL	8aa\	.	.
.	.	36a/	.	.	.
.	.	36e/	.	.	.
.	.	36c#/	.	.	.
.	.	36e/	.	.	.
8r	.	.	8ryy	.	.
.	.	36a/	.	.	.
.	.	36cc#/	.	.	.
.	.	36ee/	.	.	.
.	.	36aa/JJJ	.	.	.
*	*	*Xcue	*	*	*
*	*	*Xped	*	*	*
4r	.	8ccc#'\)	2ryy	.	.
.	.	8r	.	.	.
*	*	*ped	*	*	*
8dd>: 8b>: 8e>:\	.	8eee: 8bb: 8gg#: 8ee:/	.	.	.
8r	.	8r	.	.	.
*	*	*Xped	*	*	*
*	*	*v	*v	*	*
=129	=129	=129	=129	=129
*	*	*ped	*	*
*	*	*cue	*	*
8AA\	.	(40AA</LLL	.	.
.	.	40C#</	.	.
.	.	40E</	.	.
.	.	40A</JJJ	.	.
.	.	40c#/LLL	.	.
8r	.	40e/	.	.
.	.	40a/	.	.
.	.	40cc#/	.	.
.	.	40ee/	.	.
.	.	40aa/JJJ	.	.
*	*	*Xcue	*	*
*	*	*Xped	*	*
4r	.	8ccc#'\)	.	.
.	.	8r	.	.
*	*	*ped	*	*
8dd>: 8b>: 8e>:\	.	8eee: 8bb: 8gg#: 8ee:/	.	.
8ryy	.	8r	.	.
*	*	*Xped	*	*
=130	=130	=130	=130	=130
*	*	*cue	*	*
!	!	!LO:TX:b:t=les 2. ped. jusqu'a la fin.	!	!
8AA\	.	(40AA</LLL	.	.
.	.	40C#</	.	.
.	.	40E</	.	.
.	.	40A</JJJ	.	.
.	.	40c#/LLL	.	.
8r	.	40e/	.	.
.	.	40a/	.	.
.	.	40cc#/	.	.
.	.	40ee/	.	.
.	.	40aa/JJJ	.	.
*	*	*Xcue	*	*
4r	.	8ccc#'\)	.	.
.	.	8r	.	.
8ee>: 8cc#>: 8a>: 8e>:\	.	8eee: 8ccc#: 8aa':/	.	.
8r	.	8r	.	.
!!LO:LB:g=original
=131	=131	=131	=131	=131
*	*	*cue	*	*
8AA\	.	(44AA</LLL	.	.
.	.	44C#</	.	.
.	.	44E</	.	.
.	.	44A</JJJ	.	.
.	.	44c#/LLL	.	.
.	.	44e/	.	.
8r	.	.	.	.
.	.	44a/	.	.
.	.	44cc#/	.	.
.	.	44ee/	.	.
.	.	44aa/	.	.
.	.	44ccc#/JJJ	.	.
*	*	*Xcue	*	*
4r	.	8eee'\)	.	.
.	.	8r	.	.
8ee>: 8cc#>: 8a>: 8e>:\	.	8aaa: 8eee: 8ccc#: 8aa':/	.	.
8ryy	.	8r	.	.
=132	=132	=132	=132	=132
*	*	*cue	*	*
8AA\	.	(48AA</LLL	.	.
.	.	48C#</	.	.
.	.	48E</	.	.
.	.	48A</JJJ	.	.
.	.	48c#/LLL	.	.
.	.	48e/	.	.
8r	.	48a/	.	.
.	.	48cc#/	.	.
.	.	48ee/	.	.
.	.	48aa/	.	.
!	!	!LO:TX:b:t=rallentando.	!	!
.	.	48ccc#/	.	.
.	.	48eee/JJJ	.	.
*	*	*Xcue	*	*
4r	.	8aaa'\)	.	.
.	.	8r	.	.
8ee>: 8cc#>: 8a>: 8e>:\	.	8cccc#: 8aaa: 8eee: 8ccc#:/	.	.
8ryy	.	8r	.	.
=133	=133	=133	=133	=133
*	*	*^	*	*
*	*	*cue	*	*	*
8AA\	.	(52AA</LLL	2ryy	.	.
.	.	52C#</	.	.	.
.	.	52E</	.	.	.
.	.	52A</JJJ	.	.	.
.	.	52c#/LLL	.	.	.
.	.	52e/	.	.	.
.	.	52a/	.	.	.
8r	.	.	.	.	.
.	.	52cc#/	.	.	.
.	.	52ee/	.	.	.
.	.	52aa/	.	.	.
.	.	52ccc#/	.	.	.
.	.	52eee/	.	.	.
.	.	52aaa/JJJ	.	.	.
*	*	*Xcue	*	*	*
4r	.	8cccc#'\)	.	.	.
.	.	8r	.	.	.
*clefG2	*	*8va	*	*	*
8ccc#:L 8ee: 8a:\	.	8eeeeL 8aaa/	8eee\L	.	ppp
16r	.	16r	16r	.	.
16ccc#Jk 16ee\	.	16cccc#/Jk	16eee\Jk	.	.
*	*	*X8va	*	*	*
=134	=134	=134	=134	=134	=134
!	!	!LO:TX:b:t=tenque de pedales\njusqu'a l'extinction	!	!	!
8ccc# 8aa\	.	8aa/	8ee\	.	.
8r	.	8r	8ryy	.	.
4r	.	4r	4ryy	.	.
4r	.	4r	4ryy	.	.
*	*	*v	*v	*	*
=135	=135	=135	=135	=135
*	*	*Xped	*	*
!	!	!LO:TX:b:t=☀	!	!
2.r	.	2.r	.	.
==	==	==	==	==
*-	*-	*-	*-	*-
!!!system-decoration: {(*)}
!!!RDF**kern: > = above
!!!RDF**kern: < = below
!!!ENC: Andrzej Kubiczek
!!!END: 2022-02-22
!!!AIN: 1 piano
!!!ENC: Andrzej Kubiczek
!!!END: 2022-02-28
